<?xml version="1.0" encoding="UTF-8"?>
<map version="1.10" tiledversion="1.11.2" orientation="orthogonal" renderorder="right-down" width="60" height="42" tilewidth="32" tileheight="32" infinite="0" nextlayerid="8" nextobjectid="27">
 <tileset firstgid="1" source="dank.tsx"/>
 <tileset firstgid="577" source="sewer.tsx"/>
 <layer id="1" name="Tile Layer 1" width="60" height="42">
  <data encoding="csv">
424,424,424,424,448,448,448,448,448,448,448,448,448,448,400,401,402,403,404,472,472,472,472,472,472,472,472,472,472,472,472,472,400,400,401,402,403,404,404,404,404,404,400,401,402,403,404,404,404,404,404,404,404,404,404,472,472,400,401,402,
448,448,448,448,472,472,472,472,472,472,400,401,402,403,404,404,400,400,400,496,496,496,496,496,496,496,496,496,496,496,496,496,424,424,425,426,427,428,428,428,428,428,400,401,402,403,404,428,428,428,428,428,428,428,428,404,404,400,401,402,
400,400,400,400,400,400,400,400,400,400,400,400,400,400,400,400,424,424,424,424,424,424,424,424,424,424,424,424,424,424,424,424,448,448,449,450,451,452,452,452,452,452,400,401,402,403,404,404,452,452,452,452,452,452,452,428,428,400,401,402,
424,424,424,424,424,424,424,424,424,424,424,424,424,424,424,424,448,448,448,448,448,448,448,448,448,448,448,448,869,869,448,448,472,472,473,474,475,476,476,476,476,476,400,401,402,403,404,428,476,476,476,476,476,476,476,452,452,400,401,402,
448,448,448,869,869,869,869,869,869,869,869,869,869,869,869,869,869,869,869,869,869,869,869,869,869,869,869,869,869,869,472,472,496,496,497,498,499,500,500,500,500,500,400,401,402,403,404,452,500,500,500,500,500,500,500,476,476,400,401,402,
472,472,472,869,472,472,472,472,472,472,869,869,869,869,869,869,869,869,496,496,869,496,869,869,869,496,869,869,869,869,496,496,472,472,472,472,473,448,448,448,448,448,400,401,402,403,404,476,472,472,472,496,497,498,499,500,400,401,402,403,
496,496,496,869,869,869,869,203,203,203,203,203,496,869,496,496,869,869,869,500,869,869,869,869,448,472,869,869,869,424,424,424,496,496,496,496,497,472,472,472,472,472,400,401,402,403,404,500,404,400,401,402,403,404,496,497,400,401,402,403,
498,499,500,500,500,203,869,500,500,500,869,203,424,869,869,869,869,869,869,869,869,869,869,400,869,869,424,869,424,448,448,448,448,424,400,400,401,496,496,496,496,496,424,400,401,402,403,404,428,400,401,402,403,404,404,452,400,401,402,403,
498,499,500,869,869,869,869,203,203,203,203,203,448,869,472,869,869,869,869,869,869,869,869,869,869,424,448,869,448,472,472,472,472,448,424,400,401,496,497,498,499,500,448,400,401,402,403,404,452,400,401,402,403,404,428,476,400,401,402,403,
498,499,500,404,448,448,144,144,144,144,144,472,472,472,496,496,496,400,400,424,424,424,424,448,448,448,472,472,472,496,496,496,496,472,448,400,401,402,496,497,498,499,472,400,401,402,403,404,476,400,401,402,403,404,452,404,400,401,402,403,
498,499,500,428,472,472,472,144,144,144,496,496,496,400,400,400,400,424,424,448,448,448,448,472,472,472,496,496,496,497,498,499,500,496,472,400,401,402,403,496,497,498,496,400,401,402,403,404,500,400,401,402,403,404,476,428,401,402,403,404,
498,499,500,452,496,496,496,496,496,496,144,144,144,144,144,144,424,448,448,472,472,472,472,496,496,496,497,498,499,500,428,428,452,452,400,401,402,403,404,404,400,401,402,403,404,401,402,403,404,400,401,402,403,404,500,452,401,402,403,404,
498,499,500,476,497,498,499,500,400,144,144,144,144,144,448,448,448,472,472,496,496,496,496,497,498,499,500,428,452,452,452,452,400,401,402,403,404,404,404,400,401,402,403,404,404,401,402,403,404,400,401,402,403,404,500,476,404,402,403,404,
497,498,499,500,497,498,400,400,424,424,144,144,144,144,472,472,472,496,496,497,498,499,500,428,452,452,400,401,402,403,404,404,404,404,404,404,428,428,428,400,401,402,403,404,428,401,402,403,404,400,401,402,403,404,499,500,428,402,403,404,
497,498,499,500,400,400,424,424,448,448,448,472,472,496,496,496,400,400,401,402,403,404,404,404,404,404,404,404,404,404,428,428,428,428,428,428,452,452,452,400,401,402,403,404,605,605,606,635,636,637,638,639,640,641,636,637,638,639,640,641,
497,498,499,500,404,424,448,448,472,472,472,496,496,497,498,499,424,424,400,400,400,400,400,400,400,400,400,400,400,400,400,400,400,400,401,402,403,404,476,400,401,402,403,605,605,606,630,659,660,661,662,663,664,665,660,661,662,663,664,665,
497,498,499,500,428,448,472,472,496,496,496,497,498,499,500,452,448,448,424,424,424,424,424,424,424,424,424,424,424,424,424,424,424,424,400,400,401,402,403,400,401,402,403,605,606,630,2684355234,2684355210,684,685,686,687,688,689,684,685,686,687,688,689,
497,498,499,500,452,472,496,496,497,498,499,500,476,476,476,476,472,472,448,448,448,448,448,448,448,448,448,448,448,448,448,448,448,448,424,424,425,426,427,400,401,402,403,629,630,2684355259,2684355235,2684355211,708,709,710,711,712,713,708,709,710,711,712,713,
497,498,499,500,476,496,497,498,499,500,500,500,500,500,500,500,496,496,472,472,472,472,472,472,472,472,472,472,472,472,472,472,472,472,448,448,449,450,451,400,401,402,403,404,500,1610613393,1610613417,1610613441,402,400,401,402,403,404,498,499,500,452,404,500,
497,498,499,500,500,498,499,500,401,402,403,404,404,404,404,404,404,404,496,496,496,496,496,496,496,496,496,496,496,496,496,496,496,496,472,472,473,474,475,400,401,402,403,404,500,1610613392,1610613416,1610613440,402,400,401,402,727,728,729,730,731,732,727,728,
496,497,498,499,500,498,499,500,425,426,427,428,428,428,428,428,428,428,428,428,428,428,428,428,428,428,428,428,424,424,424,425,426,427,496,496,497,498,499,400,401,402,403,404,500,1610613391,1610613415,1610613439,402,400,401,402,751,752,753,754,755,756,751,752,
496,497,498,499,500,498,499,500,449,450,451,452,452,452,452,452,452,452,452,452,452,452,452,452,452,452,452,452,448,448,448,449,450,451,452,448,449,450,451,400,401,402,403,404,500,1610613390,1610613414,1610613438,401,400,401,402,775,776,777,778,779,780,775,776,
496,497,498,499,500,498,499,500,473,474,475,476,476,476,476,476,476,476,476,476,476,476,476,476,476,476,476,476,472,472,472,473,474,475,476,472,473,474,475,400,401,402,403,404,500,1610613389,1610613413,1610613437,401,400,401,402,403,404,497,498,499,500,404,499,
60,61,62,63,64,65,66,67,68,69,70,71,500,500,500,500,500,500,500,500,500,500,500,500,500,500,500,500,496,496,496,497,498,499,500,496,497,498,499,424,425,426,427,428,499,1610613388,1610613412,1610613436,606,606,401,402,403,404,497,498,499,500,404,500,
84,85,86,87,88,89,90,91,92,93,94,95,424,424,424,424,425,424,425,426,472,473,496,497,498,499,500,268,269,221,849,268,269,243,244,820,820,820,820,821,822,450,451,452,498,1610613390,1610613414,1610613438,630,606,401,402,403,404,497,498,499,500,428,500,
108,109,110,111,112,113,114,115,116,117,118,119,448,448,448,448,449,448,449,450,496,497,498,499,500,221,221,267,268,221,849,292,293,243,244,820,821,820,820,821,822,474,475,476,498,1610613389,1610613413,1610613437,630,630,402,403,404,428,497,498,499,500,452,500,
496,497,498,499,500,498,499,500,473,474,475,476,472,472,472,472,473,472,473,474,475,476,221,221,30,221,221,291,292,221,849,292,293,243,243,820,821,820,820,821,822,498,499,500,498,1610613388,1610613412,1610613436,629,630,402,403,404,452,497,498,499,500,476,500,
496,497,498,499,500,498,499,500,497,498,499,500,496,496,496,496,497,496,497,498,499,500,243,244,244,243,244,267,268,221,849,292,293,243,244,751,752,753,745,746,747,424,496,83,654,1610613387,1610613411,1610613435,629,630,402,403,404,476,496,497,498,499,500,500,
496,497,498,499,500,229,230,231,218,218,218,218,218,219,220,218,218,218,218,218,243,244,244,244,244,243,244,267,268,221,849,267,243,243,244,775,776,777,769,770,771,2684354682,2684354658,107,678,1610613386,1610613410,1610613434,629,630,402,403,404,500,424,496,497,498,499,500,
496,497,498,499,500,404,267,243,243,244,242,245,246,246,246,246,246,246,246,246,246,245,243,243,244,245,246,243,244,236,799,226,227,228,236,244,472,473,474,475,476,2684354683,2684354659,131,702,1610613385,1610613409,1610613433,404,401,402,403,404,404,448,496,497,498,499,500,
496,497,498,499,500,428,291,279,279,279,266,279,279,279,279,279,279,279,279,279,279,279,279,279,279,279,279,279,269,261,257,250,251,252,260,261,261,497,498,499,500,2684354684,2684354660,2684354636,2684354612,53,54,55,56,57,58,59,60,61,62,63,64,65,66,67,
496,497,498,499,500,452,325,326,327,328,329,330,331,332,333,325,326,327,328,329,330,331,332,333,334,325,326,327,328,329,281,274,251,276,284,287,287,287,287,287,287,73,74,75,76,77,78,79,80,81,82,83,84,85,86,87,88,89,90,91,
496,497,498,499,500,476,349,350,351,352,353,354,355,356,357,349,350,351,352,353,354,355,356,357,358,349,350,351,352,353,354,274,251,276,351,311,311,311,287,287,311,97,98,99,100,101,102,103,104,105,106,107,108,109,110,111,112,113,114,115,
496,497,498,499,500,500,373,374,375,376,377,378,379,380,381,373,374,375,376,377,378,379,380,381,382,373,374,375,376,377,378,274,251,276,375,376,377,378,311,311,381,382,424,400,124,125,126,127,128,129,130,131,132,133,134,135,136,137,138,139,
400,400,400,400,400,400,401,402,400,400,400,400,400,400,400,400,400,400,400,400,400,400,400,400,400,400,400,400,400,400,400,274,251,276,400,159,160,161,162,163,164,165,166,167,168,157,158,159,157,158,159,728,728,729,728,728,728,728,728,729,
424,424,424,424,424,424,400,400,424,424,424,424,424,424,424,424,424,424,424,424,424,424,424,424,424,424,424,424,424,424,424,274,251,276,424,183,184,185,186,187,188,189,190,191,192,181,182,183,181,182,183,752,752,753,752,752,752,752,752,753,
448,448,448,448,448,448,424,424,448,448,448,448,448,448,448,448,448,448,448,448,448,448,448,448,448,448,448,448,448,448,448,274,275,276,448,207,208,209,210,211,212,213,214,215,216,205,206,207,205,206,207,776,776,777,776,776,776,776,776,777,
472,472,472,472,472,472,448,448,472,472,472,472,472,472,472,472,472,472,472,472,472,472,472,472,472,472,472,472,472,231,232,233,230,231,232,231,232,233,234,235,236,237,238,229,229,229,229,230,230,229,230,231,232,233,797,797,797,797,797,798,
404,404,404,404,404,404,404,404,496,496,496,496,496,496,496,496,496,496,496,496,496,496,496,496,496,496,496,400,401,402,403,404,404,404,400,400,400,400,400,400,400,400,400,400,400,400,400,400,401,402,403,404,404,496,497,498,499,500,401,402,
428,428,428,428,428,428,428,428,428,428,428,428,428,428,428,428,428,428,428,428,428,428,400,400,400,400,400,400,400,400,400,400,400,400,424,424,424,424,424,424,424,424,424,424,424,424,424,424,425,426,427,428,428,496,497,498,499,500,401,402,
452,452,452,452,452,452,452,452,452,452,452,452,452,452,452,452,452,452,452,452,452,452,424,424,424,424,424,424,424,424,424,424,424,424,448,448,448,448,448,448,448,448,448,448,448,448,448,448,449,450,451,452,452,496,497,498,499,500,402,403,
476,476,476,476,476,476,476,476,476,476,476,476,476,476,476,476,476,476,476,476,476,476,448,448,448,448,448,448,448,448,448,448,448,448,472,472,472,472,472,472,472,472,472,472,472,472,472,472,473,474,475,476,476,496,497,498,499,500,404,404
</data>
 </layer>
 <layer id="6" name="floor" width="60" height="42">
  <data encoding="csv">
0,0,0,0,0,0,0,0,0,0,0,0,0,0,0,0,0,0,0,0,0,0,0,0,0,0,0,0,0,0,0,0,0,0,0,0,0,0,0,0,0,0,0,0,0,0,0,0,0,0,0,0,0,0,0,0,0,0,0,0,
0,0,0,0,0,0,0,0,0,0,0,0,0,0,0,0,0,0,0,0,0,0,0,0,0,0,0,0,0,0,0,0,0,0,0,0,0,0,0,0,0,0,0,0,0,0,0,0,0,0,0,0,0,0,0,0,0,0,0,0,
0,0,0,0,0,0,0,0,0,0,0,0,0,0,0,0,0,0,0,0,0,0,0,0,0,0,0,0,0,0,0,0,0,0,0,0,0,0,0,0,0,0,0,0,0,0,0,0,0,0,0,0,0,0,0,0,0,0,0,0,
0,0,0,0,0,0,0,0,0,0,0,0,0,0,0,0,0,0,0,0,0,0,0,0,0,0,0,0,0,0,0,0,0,0,0,0,0,0,0,0,0,0,0,0,0,0,0,0,0,0,0,0,0,0,0,0,0,0,0,0,
0,0,0,0,0,0,0,0,0,0,0,0,0,0,0,0,0,0,0,0,0,0,0,0,0,0,0,0,0,0,0,0,0,0,0,0,0,0,0,0,0,0,0,0,0,0,0,0,0,0,0,0,0,0,0,0,0,0,0,0,
0,0,0,0,0,0,0,0,0,0,0,0,0,0,0,0,0,0,0,0,0,0,0,0,0,0,0,0,0,0,0,0,0,0,0,0,0,0,0,0,0,0,0,0,0,0,0,0,0,0,0,0,0,0,0,0,0,0,0,0,
0,0,0,0,0,0,0,0,0,0,0,0,0,0,0,0,0,0,0,0,0,0,0,0,0,0,0,0,0,0,0,0,0,0,0,0,0,0,0,0,0,0,0,0,0,0,0,0,0,0,0,0,0,0,0,0,0,0,0,0,
0,0,0,0,0,0,0,0,0,0,0,0,0,0,0,0,0,0,0,0,0,0,0,0,0,0,0,0,0,0,0,0,0,0,0,0,0,0,0,0,0,0,0,0,0,0,0,0,0,0,0,0,0,0,0,0,0,0,0,0,
0,0,0,0,0,0,0,0,0,0,0,0,0,0,0,0,0,0,0,0,0,0,0,0,0,0,0,0,0,0,0,0,0,0,0,0,0,0,0,0,0,0,0,0,0,0,0,0,0,0,0,0,0,0,0,0,0,0,0,0,
0,0,0,0,0,0,0,0,0,0,0,0,0,0,0,0,0,0,0,0,0,0,0,0,0,0,0,0,0,0,0,0,0,0,0,0,0,0,0,0,0,0,0,0,0,0,0,0,0,0,0,0,0,0,0,0,0,0,0,0,
0,0,0,0,0,0,0,0,0,0,0,0,0,0,0,0,0,0,0,0,0,0,0,0,0,0,0,0,0,0,0,0,0,0,0,0,0,0,0,0,0,0,0,0,0,0,0,0,0,0,0,0,0,0,0,0,0,0,0,0,
0,0,0,0,0,0,0,0,0,0,0,0,0,0,0,0,0,0,0,795,795,795,795,0,0,0,0,0,0,0,0,0,0,0,0,0,0,0,0,0,0,0,0,0,0,0,0,0,0,0,0,0,0,0,0,0,0,0,0,0,
0,0,0,0,0,0,0,0,0,0,0,0,0,0,0,0,0,0,0,795,795,795,795,0,0,0,0,0,0,0,0,0,0,0,0,0,0,0,0,0,0,0,0,0,0,0,0,0,0,0,0,0,0,0,0,0,0,0,0,613,
0,0,0,0,0,0,0,0,0,0,0,0,0,0,0,0,0,0,0,795,795,795,795,0,0,0,0,0,0,0,0,0,0,0,0,0,0,0,0,0,0,0,0,0,0,0,0,0,0,0,0,0,0,0,0,0,0,0,0,613,
0,0,0,0,0,0,0,0,0,0,0,0,0,0,0,0,0,0,0,795,795,795,795,0,0,0,0,0,0,0,0,0,0,0,0,0,0,0,0,0,0,0,0,0,0,0,0,0,0,0,0,0,0,0,0,0,0,0,0,613,
231,231,231,231,231,231,231,231,231,231,231,231,231,231,231,231,231,231,231,231,231,231,795,795,799,799,799,799,799,799,0,0,0,0,0,0,0,0,0,0,0,0,0,0,0,0,0,0,0,0,0,0,0,0,0,0,0,0,0,613,
794,795,795,795,795,0,0,0,0,0,0,0,0,0,0,0,0,0,0,777,0,0,0,0,0,0,0,0,0,0,0,0,0,0,0,0,0,0,0,0,0,0,0,0,0,0,0,0,0,0,0,0,0,0,0,0,0,0,0,613,
794,794,795,794,795,0,0,0,0,0,0,0,0,0,0,0,0,0,0,777,0,0,0,0,0,0,0,0,0,0,0,0,0,0,0,0,0,0,0,0,0,0,0,0,0,0,0,0,0,0,0,0,0,0,0,0,0,0,0,613,
231,231,231,231,231,0,0,0,0,0,0,0,0,0,0,0,0,0,0,777,0,0,0,0,0,0,0,0,0,0,0,0,0,0,0,0,0,0,0,0,0,0,0,0,0,0,0,0,0,0,0,0,0,0,0,0,0,0,0,734,
0,0,0,0,231,0,0,0,0,0,0,0,0,0,0,0,0,0,0,777,0,0,0,0,0,0,0,0,0,0,0,0,0,0,0,0,0,0,0,0,0,0,0,0,0,0,0,0,0,0,0,0,0,0,0,0,0,0,0,734,
0,0,0,0,231,0,0,0,0,0,0,0,0,0,0,799,799,799,798,777,0,0,0,0,0,0,0,0,0,0,0,0,0,0,0,0,0,0,0,0,0,0,0,0,0,0,0,0,0,0,0,0,0,0,0,0,0,0,0,758,
0,0,0,0,231,0,0,0,0,0,0,0,0,0,0,0,0,0,0,0,0,0,0,0,0,0,0,0,0,0,0,0,0,0,0,0,0,0,0,0,0,0,0,0,0,0,0,0,0,0,0,0,0,0,0,0,0,0,0,782,
0,0,0,0,231,0,0,0,0,0,0,0,0,0,0,0,0,0,0,0,0,0,0,0,0,0,0,0,0,0,0,0,0,0,0,0,0,0,0,0,0,0,0,0,0,0,0,0,0,0,798,798,798,798,798,798,798,798,798,799,
0,0,0,0,231,799,799,799,799,799,0,0,0,0,0,0,0,0,0,0,0,0,0,0,0,0,0,0,0,0,0,0,0,0,0,0,0,0,0,0,0,0,0,0,0,0,0,0,0,0,0,0,0,0,0,0,0,0,0,702,
0,0,0,0,231,0,0,0,0,0,0,0,0,0,0,0,0,0,0,0,0,0,0,0,0,0,798,798,798,795,0,0,0,0,0,0,0,0,0,0,0,0,0,0,0,0,0,0,0,0,0,0,0,0,0,0,0,0,0,702,
0,0,0,0,231,0,0,0,0,0,0,0,0,0,0,0,0,0,0,0,0,0,0,0,798,798,798,798,798,231,0,0,0,0,0,0,0,0,0,0,0,0,0,0,0,0,0,0,0,0,0,0,0,0,0,0,0,0,0,702,
0,0,0,0,231,0,0,0,0,0,0,0,0,0,0,0,0,0,0,0,0,0,798,798,798,798,798,0,0,231,0,0,0,0,0,0,0,0,0,0,0,0,0,0,0,0,0,0,0,0,0,0,0,0,0,0,0,0,0,702,
0,0,0,0,231,0,0,0,0,0,0,0,0,0,0,0,0,0,0,0,801,801,798,798,798,0,0,0,0,231,0,0,0,0,0,0,0,0,0,0,0,0,0,0,0,0,0,0,0,0,0,0,0,0,0,0,0,0,0,702,
0,0,0,0,231,231,231,231,231,231,231,231,231,231,231,231,231,231,231,231,798,798,798,0,0,0,0,0,0,231,0,0,0,0,0,0,0,0,0,0,0,0,0,0,0,0,0,0,0,0,0,0,0,0,0,0,0,0,0,702,
0,0,0,0,0,0,0,0,0,0,0,0,0,0,0,0,0,0,0,0,0,0,0,0,0,0,0,0,0,230,231,0,0,0,0,798,798,798,798,798,798,0,0,0,0,0,0,0,0,0,0,0,0,0,0,0,0,0,0,702,
0,0,0,0,0,0,0,0,0,0,0,0,0,0,0,0,0,0,0,0,0,0,0,0,0,0,0,0,0,230,230,0,0,0,0,0,0,0,0,0,0,0,0,0,0,0,0,0,0,0,0,0,0,0,0,0,0,0,0,702,
0,0,0,0,0,0,0,0,0,0,0,0,0,0,0,0,0,0,0,0,0,0,0,0,0,0,0,0,0,230,230,0,0,0,0,0,0,0,0,0,0,0,0,0,0,0,0,0,0,0,0,0,0,0,0,0,0,0,0,661,
0,0,0,0,0,0,0,0,0,0,0,0,0,0,0,0,0,0,0,0,0,0,0,0,0,0,0,0,0,230,230,0,0,0,0,0,0,0,0,0,0,0,0,0,0,0,0,0,0,0,0,0,0,0,0,0,0,0,0,685,
0,0,0,0,0,0,0,0,0,0,0,0,0,0,0,0,0,0,0,0,0,0,0,0,0,0,0,0,0,230,230,0,0,0,0,0,0,0,0,0,0,0,0,0,0,0,0,0,0,0,0,0,0,0,0,0,0,0,0,709,
0,0,0,0,0,0,0,0,0,0,0,0,0,0,0,0,0,0,0,0,0,0,0,0,0,0,0,0,0,230,230,0,0,0,0,0,0,0,0,0,0,0,0,0,0,0,0,0,0,0,0,0,0,0,0,0,0,0,0,728,
0,0,0,0,0,0,0,0,0,0,0,0,0,0,0,0,0,0,0,0,0,0,0,0,0,0,0,0,0,230,230,0,0,0,0,0,0,0,0,0,0,0,0,0,0,0,0,0,0,0,0,0,0,0,0,0,0,0,0,752,
0,0,0,0,0,0,0,0,0,0,0,0,0,0,0,0,0,0,0,0,0,0,0,0,0,0,0,0,0,230,230,0,0,0,0,0,0,0,0,0,0,0,0,0,0,0,0,0,0,0,0,0,0,0,0,0,0,0,0,776,
0,0,0,0,0,0,0,0,0,0,0,0,0,0,0,0,0,0,0,0,0,0,0,0,0,0,0,0,0,230,230,231,231,231,231,231,231,231,231,231,231,231,231,231,231,231,231,231,231,231,231,231,231,231,231,231,231,797,797,798,
0,0,0,0,0,0,0,0,0,0,0,0,0,0,0,0,0,0,0,0,0,0,0,0,0,0,0,0,0,0,0,0,0,0,0,0,0,0,0,0,0,0,0,0,0,0,0,0,0,0,0,0,0,0,0,0,0,0,0,0,
0,0,0,0,0,0,0,0,0,0,0,0,0,0,0,0,0,0,0,0,0,0,0,0,0,0,0,0,0,0,0,0,0,0,0,0,0,0,0,0,0,0,0,0,0,0,0,0,0,0,0,0,0,0,0,0,0,0,0,0,
0,0,0,0,0,0,0,0,0,0,0,0,0,0,0,0,0,0,0,0,0,0,0,0,0,0,0,0,0,0,0,0,0,0,0,0,0,0,0,0,0,0,0,0,0,0,0,0,0,0,0,0,0,0,0,0,0,0,0,0,
0,0,0,0,0,0,0,0,0,0,0,0,0,0,0,0,0,0,0,0,0,0,0,0,0,0,0,0,0,0,0,0,0,0,0,0,0,0,0,0,0,0,0,0,0,0,0,0,0,0,0,0,0,0,0,0,0,0,0,0
</data>
 </layer>
 <layer id="7" name="ladder" width="60" height="42">
  <data encoding="csv">
0,0,0,0,0,0,0,0,0,0,0,0,0,0,0,0,0,0,0,0,0,0,0,0,0,0,0,0,0,0,0,0,0,0,0,0,0,0,0,0,0,0,0,0,0,0,0,0,0,0,0,0,0,0,0,0,0,0,0,0,
0,0,0,0,0,0,0,0,0,0,0,0,0,0,0,0,0,0,0,0,0,0,0,0,0,0,0,0,0,0,0,0,0,0,0,0,0,0,0,0,0,0,0,0,0,0,0,0,0,0,0,0,0,0,0,0,0,0,0,0,
0,0,0,0,0,0,0,0,0,0,0,0,0,0,0,0,0,0,0,0,0,0,0,0,0,0,0,0,0,0,0,0,0,0,0,0,0,0,0,0,0,0,0,0,0,0,0,0,0,0,0,0,0,0,0,0,0,0,0,0,
0,0,0,0,0,0,0,0,0,0,0,0,0,0,0,0,0,0,0,0,0,0,0,0,0,0,0,0,0,0,0,0,0,0,0,0,0,0,0,0,0,0,0,0,0,0,0,0,0,0,0,0,0,0,0,0,0,0,0,0,
0,0,0,0,0,0,0,0,0,0,0,0,0,0,0,0,0,0,0,0,0,0,0,0,0,0,0,0,0,0,0,0,0,0,0,0,0,0,0,0,0,0,0,0,0,0,0,0,0,0,0,0,0,0,0,0,0,0,0,0,
0,0,0,0,0,0,0,0,0,0,0,0,0,0,0,0,0,0,0,0,0,0,0,0,0,0,0,0,0,0,0,0,0,0,0,0,0,0,0,0,0,0,0,0,0,0,0,0,0,0,0,0,0,0,0,0,0,0,0,0,
0,0,0,0,0,0,0,0,0,0,0,0,0,0,0,0,0,0,0,0,0,0,0,0,0,0,0,0,0,0,0,0,0,0,0,0,0,0,0,0,0,0,0,0,0,0,0,0,0,0,0,0,0,0,0,0,0,0,0,0,
0,0,0,0,0,0,0,0,0,0,0,0,0,0,0,0,0,0,0,0,0,0,0,0,0,0,0,0,0,0,0,0,0,0,0,0,0,0,0,0,0,0,0,0,0,0,0,0,0,0,0,0,0,0,0,0,0,0,0,0,
0,0,0,0,0,0,0,0,0,0,0,0,0,0,0,0,0,0,0,0,0,0,0,0,0,0,0,0,0,0,0,0,0,0,0,0,0,0,0,0,0,0,0,0,0,0,0,0,0,0,0,0,0,0,0,0,0,0,0,0,
0,0,0,0,0,0,0,0,0,0,0,0,0,0,0,0,0,0,0,0,0,0,0,0,0,0,0,0,0,0,0,0,0,0,0,0,0,0,0,0,0,0,0,0,0,0,0,0,0,0,0,0,0,0,0,0,0,0,0,0,
0,0,0,0,0,0,0,0,0,0,0,0,0,0,0,0,0,0,0,0,0,0,0,0,0,0,0,0,0,0,0,0,0,0,0,0,0,0,0,0,0,0,0,0,0,0,0,0,0,0,0,0,0,0,0,0,0,0,0,0,
0,0,0,0,0,0,0,0,0,0,0,0,0,0,0,0,802,803,804,0,0,0,0,0,0,0,0,0,0,0,0,0,0,0,0,0,0,0,0,0,0,0,0,0,0,0,0,0,0,0,0,0,0,0,0,0,0,0,0,0,
0,0,0,0,0,0,0,0,0,0,0,0,0,0,0,0,826,827,828,0,0,0,0,0,0,0,0,0,0,0,0,0,0,0,0,0,0,0,0,0,0,0,0,0,0,0,0,0,0,0,0,0,0,0,0,0,0,0,0,0,
0,0,0,0,0,0,0,0,0,0,0,0,0,0,0,0,826,827,828,0,0,0,0,0,0,0,0,0,0,0,0,0,0,0,0,0,0,0,0,0,0,0,0,0,0,0,0,0,0,0,0,0,0,0,0,0,0,0,0,0,
0,0,0,0,0,0,0,0,0,0,0,0,0,0,0,0,850,851,852,0,0,0,0,0,0,0,0,0,0,0,0,0,0,0,0,0,0,0,0,0,0,0,0,0,0,0,0,0,0,0,0,0,0,0,0,0,0,0,0,0,
0,0,0,0,0,0,0,0,0,0,0,0,0,0,0,0,0,0,0,0,0,0,0,0,0,0,0,0,0,0,0,0,0,0,0,0,0,0,0,0,0,0,0,0,0,0,0,0,0,0,0,0,0,0,0,0,0,0,0,0,
0,0,0,0,0,0,0,0,0,0,0,0,0,0,0,0,0,0,0,0,0,0,0,0,0,0,0,0,0,0,0,0,0,0,0,0,0,0,0,0,0,0,0,0,0,0,0,0,0,0,0,0,0,0,0,0,0,0,0,0,
0,0,0,0,0,0,0,0,0,0,0,0,0,0,0,0,0,0,0,0,0,0,0,0,0,0,0,0,0,0,0,0,0,0,0,0,0,0,0,0,0,0,0,0,0,0,0,0,0,0,0,0,0,0,0,0,0,0,0,0,
0,0,0,0,0,0,0,0,0,0,0,0,0,0,0,0,0,0,0,0,0,0,0,0,0,0,0,0,0,0,0,0,0,0,0,0,0,0,0,0,0,0,0,0,0,0,0,0,0,0,0,0,0,0,0,0,0,0,0,0,
0,0,0,0,0,0,0,0,0,0,0,0,0,0,0,0,0,0,0,0,0,0,0,0,0,0,0,0,0,0,0,0,0,0,0,0,0,0,0,0,0,0,0,0,0,0,0,0,0,0,0,0,0,0,0,0,0,0,0,0,
0,0,0,0,0,0,0,0,0,0,0,0,0,0,0,0,0,0,0,0,0,0,0,0,0,0,0,0,0,0,0,0,0,0,0,0,0,0,0,0,0,0,0,0,0,0,0,0,0,0,0,0,0,0,0,0,0,0,0,0,
0,0,0,0,0,0,0,0,0,0,0,0,0,0,0,0,0,0,0,0,0,0,0,0,0,0,0,0,0,0,0,0,0,0,0,0,0,0,0,0,0,0,0,0,0,0,0,0,0,0,0,0,0,0,0,0,0,0,0,0,
0,0,0,0,0,0,0,0,0,0,0,0,0,0,0,0,0,0,0,0,0,0,0,0,0,0,0,0,0,0,0,0,0,0,0,0,0,0,0,0,0,0,0,0,0,0,0,802,803,804,0,0,0,0,0,0,0,0,0,0,
0,0,0,0,0,0,0,0,0,0,0,0,0,0,0,0,0,0,0,0,0,0,0,0,0,0,0,0,0,0,0,0,0,0,0,0,0,0,0,0,0,0,0,0,0,0,0,826,827,828,0,0,0,0,0,0,0,0,0,0,
0,0,0,0,0,0,0,0,0,0,0,0,0,0,0,0,0,0,0,0,0,0,0,0,0,0,0,0,0,0,0,0,0,0,0,0,0,0,0,0,0,0,0,0,0,0,0,826,827,828,0,0,0,0,0,0,0,0,0,0,
0,0,0,0,0,0,0,0,0,0,0,0,0,0,0,0,0,0,0,0,0,0,0,0,0,0,0,0,0,0,0,0,0,0,0,0,0,0,0,0,0,0,0,0,0,0,0,826,827,828,0,0,0,0,0,0,0,0,0,0,
0,0,0,0,0,0,0,0,0,0,0,0,0,0,0,0,0,0,0,0,0,0,0,0,0,0,0,0,0,0,0,0,0,0,0,0,0,0,0,0,0,0,0,0,0,0,0,826,827,828,0,0,0,0,0,0,0,0,0,0,
0,0,0,0,0,0,0,0,0,0,0,0,0,0,0,0,0,0,0,0,0,0,0,0,0,0,0,0,0,0,0,0,0,0,0,0,0,0,0,0,0,0,0,0,0,0,0,826,827,828,0,0,0,0,0,0,0,0,0,0,
0,0,0,0,0,0,0,0,0,0,0,0,0,0,0,0,0,0,0,0,0,0,0,0,0,0,0,0,0,0,0,0,0,0,0,0,0,0,0,0,0,0,0,0,0,0,0,826,827,828,0,0,0,0,0,0,0,0,0,0,
0,0,0,0,0,0,0,0,0,0,0,0,0,0,0,0,0,0,0,0,0,0,0,0,0,0,0,0,0,0,0,802,803,804,0,0,0,0,0,0,0,0,0,0,0,0,0,826,827,828,0,0,0,0,0,0,0,0,0,0,
0,0,0,0,0,0,0,0,0,0,0,0,0,0,0,0,0,0,0,0,0,0,0,0,0,0,0,0,0,0,0,826,827,828,0,0,0,0,0,0,0,0,0,0,0,0,0,826,827,828,0,0,0,0,0,0,0,0,0,0,
0,0,0,0,0,0,0,0,0,0,0,0,0,0,0,0,0,0,0,0,0,0,0,0,0,0,0,0,0,0,0,826,827,828,0,0,0,0,0,0,0,0,0,0,0,0,0,826,827,828,0,0,0,0,0,0,0,0,0,0,
0,0,0,0,0,0,0,0,0,0,0,0,0,0,0,0,0,0,0,0,0,0,0,0,0,0,0,0,0,0,0,826,827,828,0,0,0,0,0,0,0,0,0,0,0,0,0,826,827,828,0,0,0,0,0,0,0,0,0,0,
0,0,0,0,0,0,0,0,0,0,0,0,0,0,0,0,0,0,0,0,0,0,0,0,0,0,0,0,0,0,0,826,827,828,0,0,0,0,0,0,0,0,0,0,0,0,0,826,827,828,0,0,0,0,0,0,0,0,0,0,
0,0,0,0,0,0,0,0,0,0,0,0,0,0,0,0,0,0,0,0,0,0,0,0,0,0,0,0,0,0,0,826,827,828,0,0,0,0,0,0,0,0,0,0,0,0,0,826,827,828,0,0,0,0,0,0,0,0,0,0,
0,0,0,0,0,0,0,0,0,0,0,0,0,0,0,0,0,0,0,0,0,0,0,0,0,0,0,0,0,0,0,826,827,828,0,0,0,0,0,0,0,0,0,0,0,0,0,826,827,828,0,0,0,0,0,0,0,0,0,0,
0,0,0,0,0,0,0,0,0,0,0,0,0,0,0,0,0,0,0,0,0,0,0,0,0,0,0,0,0,0,0,850,851,852,0,0,0,0,0,0,0,0,0,0,0,0,0,850,851,852,0,0,0,0,0,0,0,0,0,0,
0,0,0,0,0,0,0,0,0,0,0,0,0,0,0,0,0,0,0,0,0,0,0,0,0,0,0,0,0,0,0,0,0,0,0,0,0,0,0,0,0,0,0,0,0,0,0,0,0,0,0,0,0,0,0,0,0,0,0,0,
0,0,0,0,0,0,0,0,0,0,0,0,0,0,0,0,0,0,0,0,0,0,0,0,0,0,0,0,0,0,0,0,0,0,0,0,0,0,0,0,0,0,0,0,0,0,0,0,0,0,0,0,0,0,0,0,0,0,0,0,
0,0,0,0,0,0,0,0,0,0,0,0,0,0,0,0,0,0,0,0,0,0,0,0,0,0,0,0,0,0,0,0,0,0,0,0,0,0,0,0,0,0,0,0,0,0,0,0,0,0,0,0,0,0,0,0,0,0,0,0,
0,0,0,0,0,0,0,0,0,0,0,0,0,0,0,0,0,0,0,0,0,0,0,0,0,0,0,0,0,0,0,0,0,0,0,0,0,0,0,0,0,0,0,0,0,0,0,0,0,0,0,0,0,0,0,0,0,0,0,0,
0,0,0,0,0,0,0,0,0,0,0,0,0,0,0,0,0,0,0,0,0,0,0,0,0,0,0,0,0,0,0,0,0,0,0,0,0,0,0,0,0,0,0,0,0,0,0,0,0,0,0,0,0,0,0,0,0,0,0,0
</data>
 </layer>
 <objectgroup id="3" name="start">
  <object id="22" name="start" x="160" y="192" width="224" height="96"/>
 </objectgroup>
 <objectgroup id="4" name="door" tintcolor="#55cf55">
  <object id="25" name="door" type="door" x="1792" y="640" width="32" height="64"/>
 </objectgroup>
</map>
