<?xml version="1.0" encoding="UTF-8"?>
<map version="1.10" tiledversion="1.11.2" orientation="orthogonal" renderorder="right-down" width="30" height="20" tilewidth="32" tileheight="32" infinite="0" nextlayerid="4" nextobjectid="1">
 <tileset firstgid="1" source="sewer.tsx"/>
 <layer id="1" name="Tile Layer 1" width="30" height="20">
  <data encoding="csv">
2,2,2,2,2,2,3,2,3,4,5,6,7,8,9,10,11,12,13,14,15,16,17,18,19,20,21,22,23,24,
26,26,26,26,26,2,2,26,27,28,29,30,31,32,33,34,35,36,37,38,39,40,41,42,43,44,45,46,47,48,
2,3,4,5,6,7,8,9,10,11,12,13,14,15,16,17,18,19,20,21,22,23,24,41,42,43,44,45,46,47,
2,3,4,5,6,7,8,2,3,4,5,6,7,8,9,10,11,12,13,14,15,16,17,18,46,47,21,22,23,24,
72,72,72,29,54,55,32,26,27,28,29,30,31,32,33,34,35,36,37,38,39,40,41,42,54,54,70,71,72,64,
96,73,74,75,78,79,76,77,78,79,80,81,82,83,84,85,86,87,88,89,90,91,92,93,78,78,94,95,96,64,
120,97,98,99,102,103,100,101,102,103,104,105,106,107,108,109,110,111,112,113,114,115,116,117,102,102,118,119,120,120,
144,144,144,121,126,127,124,125,126,127,128,129,130,131,132,133,134,135,136,137,138,139,140,141,126,126,127,144,144,144,
158,159,159,145,146,147,148,149,150,151,152,153,151,152,153,157,158,159,160,161,162,163,164,165,166,167,168,158,158,159,
182,183,183,175,176,177,170,176,177,175,176,177,175,176,177,181,182,183,184,185,186,187,188,189,190,191,192,182,182,183,
206,207,207,199,200,201,194,200,201,199,200,201,199,200,201,205,206,207,208,209,210,211,212,213,214,215,216,206,206,207,
230,231,231,229,230,231,232,233,229,230,231,232,233,229,230,231,226,227,228,232,236,234,235,236,229,230,231,230,230,231,
262,263,264,244,245,246,247,244,245,246,247,244,245,246,247,244,250,251,252,247,257,258,259,260,261,262,263,262,263,264,
286,287,288,268,269,270,271,268,269,270,271,268,269,270,271,268,274,275,276,271,281,282,283,284,285,286,287,286,287,288,
310,311,312,289,290,291,292,293,294,295,296,297,298,299,300,301,302,303,304,305,306,307,308,309,310,311,312,310,311,312,
334,335,336,313,314,315,316,317,318,319,320,321,322,323,324,325,326,327,328,329,330,331,332,333,334,335,336,334,335,336,
358,359,360,337,338,339,340,341,342,343,344,345,346,347,348,349,350,351,352,353,354,355,356,357,358,359,360,358,359,360,
382,383,384,361,362,363,364,365,366,367,368,369,370,371,372,373,374,375,376,377,378,379,380,381,382,383,384,382,383,384,
2,3,4,5,6,7,8,2,3,4,5,6,7,8,9,10,11,12,13,14,15,16,17,18,19,20,21,22,23,24,
26,27,28,29,30,31,32,26,27,28,29,30,31,32,33,34,35,36,37,38,39,40,41,42,43,44,45,46,47,48
</data>
 </layer>
 <layer id="3" name="Tile Layer 2" width="30" height="20">
  <data encoding="csv">
0,0,0,0,0,0,0,0,0,0,0,0,0,0,0,0,0,0,0,0,0,0,0,0,0,0,0,0,0,0,
0,0,0,0,0,0,0,0,0,0,0,0,0,0,0,0,0,0,0,0,0,0,0,0,0,0,0,0,0,0,
0,0,0,0,0,0,0,0,0,0,0,0,0,0,0,0,0,0,0,0,0,0,0,0,0,0,0,0,0,0,
0,0,0,0,0,0,0,0,0,0,0,0,0,0,0,0,0,0,0,0,0,0,0,0,0,0,0,0,0,0,
0,0,0,0,0,0,0,0,0,0,0,0,0,0,0,0,0,0,0,0,0,0,0,0,0,0,0,0,0,0,
0,0,0,0,0,0,0,0,0,0,0,0,0,0,0,0,0,0,0,0,0,0,0,0,0,0,0,0,0,0,
0,0,0,0,0,0,0,0,0,0,0,0,0,0,0,0,0,0,0,0,0,0,0,0,0,0,0,0,0,0,
0,0,0,0,0,0,0,0,0,0,0,0,0,0,0,0,0,0,0,0,0,0,0,0,0,0,0,0,0,0,
0,0,0,0,0,0,0,0,0,0,0,0,0,0,0,0,0,0,0,0,0,0,0,0,0,0,0,0,0,0,
0,0,0,0,0,0,0,0,0,0,0,0,0,0,0,0,0,0,0,0,0,0,0,0,0,0,0,0,0,0,
0,0,0,0,0,0,0,0,0,0,0,0,0,0,0,0,0,0,0,0,0,0,0,0,0,0,0,0,0,0,
0,0,0,0,0,0,0,0,0,0,0,0,0,0,0,0,0,0,0,0,0,0,0,0,0,0,0,0,0,0,
0,0,0,0,0,0,0,0,0,0,0,0,0,0,0,0,0,0,0,0,0,0,0,0,0,0,0,0,0,0,
0,0,0,0,0,0,0,0,0,0,0,0,0,0,0,0,0,0,0,0,0,0,0,0,0,0,0,0,0,0,
0,0,0,0,0,0,0,0,0,0,0,0,0,0,0,0,0,0,0,0,0,0,0,0,0,0,0,0,0,0,
0,0,0,0,0,0,0,0,0,0,0,0,0,0,0,0,0,0,0,0,0,0,0,0,0,0,0,0,0,0,
0,0,0,0,0,0,0,50,51,0,0,0,0,0,0,0,0,0,0,0,0,0,0,0,0,0,0,0,0,0,
0,0,0,0,0,0,422,422,422,422,422,0,0,0,0,0,0,0,0,0,422,422,422,422,0,0,0,0,0,0,
0,0,0,0,0,0,0,422,422,422,422,422,422,422,422,422,422,422,422,422,422,422,422,422,0,0,0,0,0,0,
0,0,0,0,0,0,0,0,0,0,0,0,0,0,0,0,0,0,0,0,0,0,0,0,0,0,0,0,0,0
</data>
 </layer>
 <objectgroup id="2" name="Object Layer 1"/>
</map>
