<?xml version="1.0" encoding="UTF-8"?>
<map version="1.10" tiledversion="1.11.2" orientation="orthogonal" renderorder="right-down" width="30" height="20" tilewidth="32" tileheight="32" infinite="0" nextlayerid="3" nextobjectid="3">
 <tileset firstgid="1" source="../sewer.tsx"/>
 <layer id="1" name="Tile Layer 1" width="30" height="20">
  <data encoding="csv">
1,1,1,1,25,25,25,25,25,25,25,25,25,25,1,25,1,1,1,1,1,1,1,1,1,1,1,1,1,1,
25,25,1,1,1,25,25,1,1,1,1,1,1,1,1,1,1,1,25,25,25,25,25,25,25,1,25,25,1,1,
1,1,25,25,25,25,1,25,1,1,25,25,1,1,25,25,25,25,25,25,25,25,25,25,25,1,25,1,1,1,
25,25,25,25,25,25,25,25,25,25,1,1,1,25,25,25,25,25,25,25,25,25,25,25,25,25,1,25,1,1,
1,1,1,2,3,1,1,1,1,25,25,25,25,25,25,25,25,25,25,25,25,25,25,25,25,25,1,1,1,1,
25,25,25,26,27,28,25,25,25,32,33,34,35,36,37,38,39,40,25,25,25,1,25,25,25,25,1,1,1,25,
1,1,49,50,51,52,53,54,55,56,57,58,59,60,61,62,63,64,65,66,67,25,25,25,25,25,1,1,1,25,
25,25,73,74,75,76,77,78,79,80,81,82,83,84,85,86,87,88,89,90,91,92,93,94,95,96,25,1,1,1,
1,1,97,98,99,100,101,102,103,104,105,106,107,108,109,110,111,112,113,114,115,116,117,118,119,120,25,1,25,1,
121,121,121,122,123,124,125,126,127,128,129,130,131,132,133,134,135,136,137,138,139,140,141,142,143,144,121,121,121,121,
145,145,145,146,147,157,157,158,151,152,153,157,157,158,157,158,159,160,161,162,163,164,165,166,167,168,145,145,145,145,
169,169,169,170,171,181,157,157,157,157,157,181,181,182,181,182,183,184,185,186,187,188,189,190,191,192,169,169,169,169,
193,193,193,194,195,205,181,181,181,181,181,205,205,206,205,206,207,208,209,210,211,212,213,214,215,216,193,193,193,193,
217,217,220,221,219,221,221,221,221,221,221,221,221,221,229,220,221,232,219,220,221,222,237,238,239,240,217,217,217,217,
241,241,244,245,243,244,245,246,247,245,245,250,251,252,253,244,245,256,244,244,245,246,261,262,263,264,241,241,241,241,
265,265,268,269,267,268,269,270,271,272,273,274,275,276,277,268,269,280,268,268,269,270,285,286,287,288,265,265,265,265,
1,1,1,1,1,1,1,1,1,1,1,1,1,1,1,1,1,1,1,1,1,1,1,1,1,1,1,1,1,1,
314,315,316,317,315,316,317,318,319,320,321,322,323,324,325,326,327,328,329,330,331,332,333,334,335,313,314,315,316,317,
1,1,337,338,339,340,341,342,343,344,345,346,347,348,349,350,351,352,353,354,355,356,357,358,359,360,1,25,25,1,
25,1,361,362,363,364,365,366,367,368,369,370,371,372,373,374,375,376,377,378,379,380,381,382,383,384,25,25,25,25
</data>
 </layer>
 <objectgroup id="2" name="Interactables">
  <object id="1" name="Quest1" type="bin" x="91.4144" y="302.065" width="40.9425" height="153.427"/>
  <object id="2" x="20.1053" y="304.489" width="202.236" height="19">
   <text fontfamily="Fixedsys" pixelsize="20" wrap="1" color="#ffffff">Press E to interact</text>
  </object>
 </objectgroup>
</map>
