<?xml version="1.0" encoding="UTF-8"?>
<map version="1.10" tiledversion="1.11.2" orientation="orthogonal" renderorder="right-down" width="50" height="40" tilewidth="32" tileheight="32" infinite="0" nextlayerid="9" nextobjectid="25">
 <tileset firstgid="1" source="sewer.tsx"/>
 <tileset firstgid="577" source="dank.tsx"/>
 <tileset firstgid="1153" source="quest1well.tsx"/>
 <tileset firstgid="1225" source="quest1mansion.tsx"/>
 <layer id="1" name="Tile Layer 1" width="50" height="40">
  <data encoding="csv">
493,493,493,517,517,517,517,517,517,517,517,517,517,517,517,517,517,493,493,493,493,493,493,517,517,517,517,517,541,541,541,541,541,542,517,517,517,541,541,541,517,517,518,519,520,521,522,523,524,525,
517,517,517,541,541,541,541,541,541,541,541,541,541,541,541,541,541,517,517,517,517,517,517,541,541,541,541,541,565,565,565,565,565,566,541,541,541,565,565,565,541,541,542,543,544,545,546,547,548,549,
25,26,27,28,29,30,31,32,31,32,30,31,32,27,28,29,30,31,32,31,32,33,34,35,36,37,38,39,40,41,42,43,40,41,42,43,44,40,41,42,43,40,41,42,43,44,45,46,47,48,
49,50,51,52,53,54,55,56,55,56,54,55,56,51,52,53,54,55,56,55,56,57,58,59,60,61,62,63,64,65,66,67,64,65,66,67,68,64,65,66,67,64,65,66,67,68,69,70,71,72,
73,74,75,76,77,78,78,79,79,80,78,79,78,78,78,79,78,79,80,78,79,81,82,83,84,85,86,87,88,89,90,76,77,78,79,76,78,79,79,80,91,78,79,90,91,92,93,94,95,96,
97,98,99,100,101,102,102,103,103,104,102,103,102,102,102,103,102,103,104,102,103,105,106,107,108,109,110,111,112,113,114,100,101,102,103,100,102,103,103,104,115,102,103,114,115,116,117,118,119,120,
121,122,123,124,125,126,126,127,127,128,126,127,128,126,126,127,126,127,128,126,127,129,130,131,132,133,134,135,136,137,138,139,136,137,138,139,126,127,137,138,139,126,127,138,139,140,141,142,143,144,
2,3,4,5,6,7,8,9,10,11,12,13,14,15,16,17,18,19,20,21,22,23,24,24,24,24,24,24,24,24,24,24,24,3,4,5,6,7,8,9,10,11,12,13,14,15,16,17,18,19,
2,3,4,5,6,7,8,9,10,11,12,13,14,15,16,17,18,19,20,21,22,23,24,15,16,17,18,19,20,21,22,23,1,2,3,4,5,6,7,8,1,2,3,4,5,6,7,8,9,10,
145,146,147,148,149,150,151,152,151,151,152,153,152,147,151,152,153,151,152,151,152,153,728,728,728,728,158,157,158,159,157,158,157,158,159,157,158,159,157,158,159,160,161,162,163,164,165,166,167,168,
175,175,175,175,175,175,175,176,175,175,176,177,176,171,175,176,177,175,176,175,176,177,752,752,752,181,182,181,182,183,181,182,181,182,183,181,182,183,181,182,183,184,185,186,187,188,189,190,191,192,
199,199,199,199,199,199,199,200,199,199,200,201,200,195,199,200,201,199,200,199,200,201,752,752,752,752,206,205,206,207,205,206,205,206,207,205,206,207,205,206,207,208,209,210,211,212,213,214,215,216,
217,218,219,219,220,221,222,219,220,221,219,220,221,222,219,220,221,222,223,223,224,225,226,227,228,229,230,231,232,231,229,231,231,232,231,229,231,232,802,231,804,232,233,234,235,236,237,238,239,240,
241,242,243,243,244,245,246,243,244,245,243,244,245,246,243,244,245,246,247,821,821,821,821,821,822,253,242,255,256,255,253,255,255,256,255,253,255,256,826,255,828,256,821,821,830,821,261,262,263,264,
265,266,267,268,269,270,271,272,271,272,270,271,272,267,268,269,270,271,272,271,272,273,845,845,845,845,278,279,280,279,277,279,279,280,279,277,279,280,826,279,828,280,845,845,854,845,285,286,287,288,
459,460,461,292,293,294,295,296,297,298,299,300,301,302,303,304,305,306,307,308,309,310,311,312,312,463,464,465,466,467,468,469,470,471,472,581,581,458,250,460,828,462,463,464,465,466,467,468,469,470,
292,293,294,295,296,297,298,299,300,301,302,303,304,305,306,307,308,309,310,311,312,312,312,312,336,312,312,312,490,581,581,493,581,581,581,581,481,58,250,655,252,58,58,58,58,58,58,58,58,58,
316,317,318,319,320,321,322,323,324,325,326,327,328,329,330,331,332,333,334,335,336,336,336,336,360,336,336,336,312,312,312,581,581,581,226,227,228,272,272,272,272,272,83,58,58,83,81,81,81,81,
340,341,342,343,344,345,346,347,348,349,350,351,352,353,354,355,356,357,358,359,360,360,360,360,360,360,360,360,336,336,336,312,581,581,250,251,252,716,702,702,716,714,716,702,702,716,702,702,702,702,
457,457,457,457,457,458,459,460,340,341,342,343,344,345,346,347,348,349,350,351,352,353,354,355,356,357,358,359,360,360,360,336,312,581,274,275,276,270,271,271,270,271,581,468,581,470,471,472,473,474,
481,481,481,481,481,457,457,457,457,457,457,340,341,342,343,344,345,346,347,348,349,350,351,352,353,354,355,356,357,358,359,360,336,312,312,269,269,270,271,581,581,581,581,581,581,470,471,472,473,474,
505,505,505,505,505,481,481,481,481,481,481,457,340,341,342,343,344,345,346,347,348,349,350,351,352,353,354,355,356,357,358,359,360,336,336,312,312,312,271,581,581,581,581,581,581,470,471,472,473,474,
529,529,529,529,529,505,505,505,505,505,505,481,481,340,341,342,343,344,345,346,347,348,349,350,351,352,353,354,355,356,357,358,359,360,360,336,336,336,312,297,271,581,581,581,469,470,471,472,473,474,
553,553,553,553,553,529,327,327,327,327,328,329,897,898,899,340,341,342,343,344,345,346,347,348,349,350,351,352,353,354,355,356,357,358,359,360,360,360,336,312,312,897,897,897,897,897,897,898,899,900,
462,463,464,465,796,467,228,469,470,471,472,473,921,922,923,924,925,926,340,341,342,343,344,345,346,347,348,349,350,351,352,353,354,355,356,357,358,359,360,336,336,312,312,921,921,921,921,922,923,924,
462,463,464,465,826,827,828,829,830,831,831,831,831,831,831,831,831,831,831,340,341,342,343,344,345,346,347,348,349,350,351,352,353,354,355,356,357,358,359,360,360,336,336,312,312,820,820,820,821,822,
462,463,464,465,826,827,828,853,854,855,855,855,855,855,855,855,855,855,855,855,855,340,341,342,343,344,345,346,347,348,349,350,351,352,353,354,355,356,357,358,359,360,360,336,336,312,312,477,478,479,
462,463,464,465,826,827,828,469,470,471,472,473,474,475,476,477,478,479,479,527,477,478,479,340,341,342,343,344,345,346,347,348,349,350,351,352,353,354,355,356,357,358,359,360,360,336,336,312,312,312,
462,463,625,626,826,827,828,469,470,471,472,473,474,475,476,477,478,479,503,551,477,478,479,527,551,340,341,342,343,344,345,346,347,348,349,350,351,352,353,354,355,356,357,358,359,360,360,336,336,336,
463,33,33,33,33,33,469,470,471,472,473,474,475,476,477,478,479,503,527,575,478,479,503,551,575,575,503,340,341,342,343,344,345,346,347,348,349,350,351,352,353,354,355,356,357,358,359,360,360,360,
463,33,33,33,33,33,469,33,33,472,473,474,475,476,477,478,479,527,551,575,479,503,527,575,574,575,527,474,475,476,340,341,342,343,344,345,346,347,348,349,350,351,352,353,354,355,356,357,358,359,
463,464,33,33,33,33,33,33,33,472,473,33,475,476,477,478,479,551,575,226,479,228,551,573,574,575,551,474,475,476,477,478,340,341,342,343,344,345,346,347,348,349,350,351,352,353,354,355,356,357,
463,464,465,33,33,33,33,33,250,827,828,33,475,476,477,478,479,575,575,250,503,252,575,572,573,574,575,475,476,477,478,479,503,575,479,503,551,571,572,573,574,575,551,527,503,503,479,479,473,474,
463,464,465,466,33,33,272,272,272,272,272,272,475,476,477,478,479,575,575,250,527,252,571,572,573,574,575,475,476,477,478,479,527,575,479,527,575,570,571,572,573,574,575,551,527,527,503,503,479,479,
463,464,465,466,33,33,33,33,272,272,272,272,272,476,477,478,479,574,575,250,551,252,571,572,573,574,575,479,476,477,478,479,551,575,479,551,568,569,570,571,572,573,574,575,551,551,527,527,503,503,
295,296,297,298,299,300,301,302,303,304,305,306,307,308,309,310,311,312,575,250,575,252,292,293,294,295,296,297,298,299,300,301,302,303,304,305,306,307,308,309,310,311,312,292,293,294,295,296,297,298,
319,320,321,322,323,324,325,326,327,328,329,330,331,332,333,334,335,336,575,250,569,252,316,317,318,319,320,321,322,323,324,325,326,327,328,329,330,331,332,333,334,335,336,316,317,318,319,320,321,322,
343,344,345,346,347,348,349,350,351,352,353,354,355,356,357,358,359,360,567,250,569,252,340,341,342,343,344,345,346,347,348,349,350,351,352,353,354,355,356,357,358,359,360,340,341,342,343,344,345,346,
535,536,537,538,539,540,541,542,543,544,545,546,547,548,549,550,551,565,566,567,568,252,570,571,572,573,574,575,527,503,551,575,574,575,575,560,561,562,563,564,565,566,567,568,569,570,571,572,573,574,
559,560,561,562,563,564,565,566,567,568,569,570,571,572,573,574,575,565,566,567,568,569,570,571,572,573,574,575,551,527,575,573,574,575,557,558,559,560,561,562,563,564,565,566,567,568,569,570,571,572
</data>
 </layer>
 <layer id="5" name="floor" width="50" height="40">
  <data encoding="csv">
0,0,0,0,0,0,0,0,0,0,0,0,0,0,0,0,0,0,0,0,0,0,0,0,0,0,0,0,0,0,0,0,0,0,0,0,0,0,0,0,0,0,0,0,0,0,0,0,0,0,
0,0,0,0,0,0,0,0,0,0,0,0,0,0,0,0,0,0,0,0,0,0,0,0,0,0,0,0,0,0,0,0,0,0,0,0,0,0,0,0,0,0,0,0,0,0,0,0,0,0,
0,0,0,0,0,0,0,0,0,0,0,0,0,0,0,0,0,0,0,0,0,0,0,0,0,0,0,0,0,0,0,0,0,0,0,0,0,0,0,0,0,0,0,0,0,0,0,0,0,0,
0,0,0,0,0,0,0,0,0,0,0,0,0,0,0,0,0,0,0,0,0,0,0,0,0,0,0,0,0,0,0,0,0,0,0,0,0,0,0,0,0,0,0,0,0,0,0,0,0,0,
0,0,0,0,0,0,0,0,0,0,0,0,0,0,0,0,0,0,0,0,0,0,0,0,0,0,0,0,0,0,0,0,0,0,0,0,0,0,0,0,0,0,0,0,0,0,0,0,0,0,
0,0,0,0,0,0,0,0,0,0,0,0,0,0,0,0,0,0,0,0,0,0,0,0,0,0,0,0,0,0,0,0,0,0,0,0,0,0,0,0,0,0,0,0,0,0,0,0,0,0,
0,0,0,0,0,0,0,0,0,0,0,0,0,0,0,0,0,0,0,0,0,0,0,0,0,0,0,0,0,0,0,0,0,0,0,0,0,0,0,0,0,0,0,0,0,0,0,0,0,0,
0,0,0,0,0,0,0,0,0,0,0,0,0,0,0,0,0,0,0,0,0,0,0,0,0,0,0,0,0,0,0,0,0,0,0,0,0,0,0,0,0,0,0,0,0,0,0,0,0,0,
0,0,0,0,0,0,0,0,0,0,0,0,0,0,0,0,0,0,0,0,0,0,0,0,0,0,0,0,0,0,0,0,0,0,0,0,0,0,0,0,0,0,0,0,0,0,0,0,0,0,
0,0,0,0,0,0,0,0,0,0,0,0,0,0,0,0,0,0,0,0,0,0,0,0,0,0,0,0,0,0,0,0,0,0,0,0,0,0,0,0,0,0,0,0,0,0,0,0,0,0,
0,0,0,0,0,0,0,0,0,0,0,0,0,0,0,0,0,0,0,0,0,0,0,0,0,0,0,0,0,0,0,0,0,0,0,0,0,0,0,0,0,0,0,0,0,0,0,0,0,0,
0,0,0,0,0,0,0,0,0,0,0,0,0,0,0,0,0,0,0,0,0,0,0,0,0,0,0,0,0,0,0,0,0,0,0,0,0,0,0,0,0,0,0,0,0,0,0,0,0,0,
794,794,794,794,794,794,794,794,794,794,794,794,794,794,794,794,794,221,222,223,796,797,799,797,798,229,230,231,232,233,229,229,229,229,229,229,229,221,0,0,0,232,798,797,797,797,237,238,239,240,
0,0,0,0,0,0,0,0,0,0,0,0,0,0,0,0,0,0,0,0,0,0,0,0,0,0,0,0,0,0,0,0,0,0,0,0,0,0,0,0,0,0,0,0,0,0,0,0,0,0,
0,0,0,0,0,0,0,0,0,0,0,0,0,0,0,0,0,0,0,0,0,0,0,0,0,0,0,0,0,0,0,0,0,0,0,0,0,0,0,0,0,0,0,0,0,0,0,0,0,0,
0,0,0,0,0,0,0,0,0,0,0,0,0,0,0,0,0,0,0,0,0,0,0,0,0,0,0,0,0,0,0,0,0,0,0,0,0,0,0,0,0,0,0,0,0,0,0,0,0,0,
0,0,0,0,0,0,0,0,0,0,0,0,0,0,0,0,0,0,0,0,0,0,0,0,0,0,0,0,0,0,0,0,0,0,0,0,0,0,0,0,0,0,0,0,0,0,0,0,0,0,
0,0,0,0,0,0,0,0,0,0,0,0,0,0,0,0,0,0,0,0,0,0,0,0,0,0,0,0,0,0,0,0,0,0,0,0,0,0,0,0,0,0,0,0,0,0,0,0,0,0,
0,0,0,0,0,0,0,0,0,0,0,0,0,0,0,0,0,0,0,0,0,0,0,0,0,0,0,0,0,0,0,0,0,0,0,0,0,116,99,100,107,108,116,117,117,116,117,117,117,117,
0,0,0,0,0,0,0,0,0,0,0,0,0,0,0,0,0,0,0,0,0,0,0,0,0,0,0,0,0,0,0,0,0,0,0,0,0,0,0,0,0,0,0,0,0,0,0,0,0,0,
0,0,0,0,0,0,0,0,0,0,0,0,0,0,0,0,0,0,0,0,0,0,0,0,0,0,0,0,0,0,0,0,0,0,0,0,0,0,0,0,0,0,0,0,1195,1197,1198,1199,1200,0,
0,0,0,0,0,0,0,0,0,0,0,0,0,0,0,0,0,0,0,0,0,0,0,0,0,0,0,0,0,0,0,0,0,0,0,0,0,0,0,0,0,0,0,0,1201,1203,1204,1205,1206,0,
0,0,0,0,0,0,0,0,0,0,0,0,0,0,0,0,0,0,0,0,0,0,0,0,0,0,0,0,0,0,0,0,0,0,0,0,0,0,0,0,0,0,0,0,1207,1209,1210,1211,1212,0,
0,0,0,0,0,0,0,0,0,0,0,0,0,0,0,0,0,0,0,0,0,0,0,0,0,0,0,0,0,0,0,0,0,0,0,0,0,0,0,0,0,0,0,0,1213,1215,1216,1217,1218,0,
0,0,0,0,0,0,0,232,794,794,794,794,794,229,230,231,794,221,794,794,794,794,794,794,794,794,794,794,794,794,794,794,794,794,794,794,794,794,794,794,794,229,230,231,794,794,794,794,221,222,
0,0,0,0,0,0,0,0,0,0,0,0,0,0,0,0,0,0,0,0,0,0,0,0,0,0,0,0,0,0,0,0,0,0,0,0,0,0,0,0,0,0,0,0,0,0,0,0,0,0,
0,0,0,0,0,0,0,0,0,0,0,0,0,0,0,0,0,0,0,0,0,0,0,0,0,0,0,0,0,0,0,0,0,0,0,0,0,0,0,0,0,0,0,0,0,0,0,0,0,0,
0,0,0,0,0,0,0,0,0,0,0,0,0,0,0,0,0,0,0,0,0,0,0,0,0,0,0,0,0,0,0,0,0,0,0,0,0,0,0,0,0,0,0,0,0,0,0,0,0,0,
0,0,0,0,0,0,0,0,0,0,0,0,0,0,0,0,0,0,0,0,0,0,0,0,0,0,0,0,0,0,0,0,0,0,0,0,0,0,0,0,0,0,0,0,0,0,0,0,0,0,
0,0,0,0,0,0,0,0,0,0,0,0,0,0,0,0,0,0,0,0,0,0,0,0,0,0,0,0,0,0,0,0,0,0,0,0,0,0,0,0,0,0,0,0,0,0,0,0,0,0,
0,0,0,0,74,0,0,77,78,79,80,81,82,83,84,85,86,87,88,0,0,0,0,0,0,0,0,0,0,0,0,0,0,0,0,0,0,0,0,0,0,0,0,0,0,0,0,0,0,0,
0,0,0,0,98,99,114,101,102,103,104,105,106,107,108,109,110,111,112,0,0,0,0,0,0,0,0,0,0,0,0,0,0,0,0,0,0,0,0,0,0,0,0,0,0,0,0,0,0,0,
0,0,0,0,0,0,0,125,126,127,128,129,130,131,132,133,134,135,136,0,0,0,0,0,0,0,0,0,0,0,0,0,0,0,0,0,0,0,0,0,0,0,0,0,0,0,0,0,0,0,
0,0,0,0,0,0,0,0,0,0,0,0,0,0,0,0,0,0,0,0,0,0,0,0,0,0,0,0,0,0,0,0,0,0,0,0,0,0,0,0,0,0,0,0,0,0,0,0,0,0,
0,0,0,0,0,0,0,0,0,0,0,0,0,0,0,0,0,0,0,0,0,0,0,0,0,0,0,0,0,0,0,0,0,0,0,0,0,0,0,0,0,0,0,0,0,0,0,0,0,0,
0,0,0,0,0,0,0,0,0,0,0,0,0,0,0,0,0,0,0,0,0,0,0,0,0,0,0,0,0,0,0,0,0,0,0,0,0,0,0,0,0,0,0,0,0,0,0,0,0,0,
0,0,0,0,0,0,0,0,0,0,0,0,0,0,0,0,0,0,0,0,0,0,0,0,0,0,0,0,0,0,0,0,0,0,0,0,0,0,0,0,0,0,0,0,0,0,0,0,0,0,
0,0,0,0,0,0,0,0,0,0,0,0,0,0,0,0,0,0,0,0,0,0,0,0,0,0,0,0,0,0,0,0,0,0,0,0,0,0,0,0,0,0,0,0,0,0,0,0,0,0,
794,794,794,794,794,794,794,794,794,794,794,794,794,794,794,794,794,221,794,794,794,794,794,794,794,794,794,794,794,794,794,794,794,794,794,794,794,794,794,794,794,794,794,794,794,794,794,794,221,222,
244,245,246,247,243,244,245,246,247,243,244,245,246,247,243,244,245,243,244,245,246,247,243,244,245,246,247,243,244,245,246,247,243,244,245,246,247,243,243,243,244,245,243,243,244,245,246,247,243,243
</data>
 </layer>
 <layer id="7" name="quest-related" width="50" height="40">
  <data encoding="csv">
0,0,0,0,0,0,0,0,0,0,0,0,0,0,0,0,0,0,0,0,0,0,0,0,0,0,0,0,0,0,0,0,0,0,0,0,0,0,0,0,0,0,0,0,0,0,0,0,0,0,
0,0,0,0,0,0,0,0,0,0,0,0,0,0,0,0,0,0,0,0,0,0,0,0,0,0,0,0,0,0,0,0,0,0,0,0,0,0,0,0,0,0,0,0,0,0,0,0,0,0,
0,0,0,0,0,0,0,0,0,0,0,0,0,0,0,0,0,0,0,0,0,0,0,0,0,0,0,0,0,0,0,0,0,0,0,0,0,0,0,0,0,0,0,0,0,0,0,0,0,0,
0,0,0,0,0,0,0,0,0,0,0,0,0,0,0,0,0,0,0,0,0,0,0,0,0,0,0,0,0,0,0,0,0,0,0,0,0,0,0,0,0,0,0,0,0,0,0,0,0,0,
0,0,0,0,0,0,0,0,0,0,0,0,0,0,0,0,0,0,0,0,0,0,0,0,0,0,0,0,0,0,0,0,0,0,0,0,0,0,0,0,0,0,0,0,0,0,0,0,0,0,
0,0,0,0,0,0,0,0,0,0,0,0,0,0,0,0,0,0,0,0,0,0,0,0,0,0,0,0,0,0,0,0,0,0,0,0,0,0,0,0,0,0,0,0,0,0,0,0,0,0,
0,0,0,0,0,0,0,0,0,0,0,0,0,0,0,0,0,0,0,0,0,0,0,0,0,0,0,0,0,0,0,0,0,0,0,0,0,0,0,0,0,0,0,0,0,0,0,0,0,0,
0,0,0,0,0,0,0,0,0,0,0,0,0,0,0,0,0,0,0,0,0,0,0,0,0,0,0,0,0,0,0,0,0,0,0,0,0,0,0,0,0,0,0,0,0,0,0,0,0,0,
0,0,0,0,0,0,0,0,0,0,0,0,0,0,0,0,0,0,0,0,0,0,0,0,0,0,0,0,0,0,0,0,0,0,0,0,0,0,0,0,0,0,0,0,0,0,0,0,0,0,
0,0,0,0,0,0,0,0,0,0,0,0,0,0,0,0,0,0,0,0,0,0,0,0,0,0,0,0,0,0,0,0,0,0,0,0,0,0,0,0,0,0,0,0,0,0,0,0,0,0,
0,0,0,0,0,0,0,0,0,0,0,0,0,0,0,0,0,0,0,0,0,0,0,0,0,0,0,0,0,0,0,0,0,0,0,0,0,0,0,0,0,0,0,0,0,0,0,0,0,0,
0,0,0,0,0,0,0,0,0,0,0,0,0,0,0,0,0,0,0,0,0,0,0,0,0,0,0,0,0,0,0,0,0,0,0,0,0,0,0,0,0,0,0,0,0,0,0,0,0,0,
0,0,0,0,0,0,0,0,0,0,0,0,0,0,0,0,0,0,0,0,0,0,0,0,0,0,0,0,0,0,0,0,0,0,0,0,0,0,0,0,0,0,0,0,0,0,0,0,0,0,
0,0,0,0,0,0,0,0,0,0,0,0,0,0,0,0,0,0,0,0,0,0,0,0,0,0,0,0,0,0,0,0,0,0,0,0,0,0,0,0,0,0,0,0,0,0,0,0,0,0,
0,0,0,0,0,0,0,0,0,0,0,0,0,0,0,0,0,0,0,0,0,0,0,0,0,0,0,0,0,0,0,0,0,0,0,0,0,0,0,0,0,0,0,0,0,0,0,0,0,0,
0,0,0,0,0,0,0,0,0,0,0,0,0,0,0,0,0,0,0,0,0,0,0,0,0,0,0,0,0,0,0,0,0,0,0,0,0,0,0,0,0,0,0,0,0,0,0,0,0,0,
0,0,0,0,0,0,0,0,0,0,0,0,0,0,0,0,0,0,0,0,0,0,0,0,0,0,0,0,0,0,0,0,0,0,0,0,0,0,0,0,0,0,0,0,0,0,0,0,0,0,
0,0,0,0,0,0,0,0,0,0,0,0,0,0,0,0,0,0,0,0,0,0,0,0,0,0,0,0,0,0,0,0,0,0,0,0,0,0,0,0,0,0,0,0,0,0,0,0,0,0,
0,0,0,0,0,0,0,0,0,0,0,0,0,0,0,0,0,0,0,0,0,0,0,0,0,0,0,0,0,0,0,0,0,0,0,0,0,1228,1229,1230,1231,1232,1233,0,0,0,0,0,0,0,
0,0,0,0,0,0,0,0,0,0,0,0,0,0,0,0,0,0,0,0,0,0,0,0,0,0,0,0,0,0,0,0,0,0,0,0,1239,1240,1241,1242,1243,1244,1245,0,0,0,0,0,0,0,
0,0,0,0,0,0,0,0,0,0,0,0,0,0,0,0,0,0,0,0,0,0,0,0,0,0,0,0,0,0,0,0,0,0,0,0,1251,1252,1253,1254,1255,1256,1257,1258,1195,1197,1198,1199,1200,0,
0,0,0,0,0,0,0,0,0,0,0,0,0,0,0,0,0,0,0,0,0,0,0,0,0,0,0,0,0,0,0,0,0,0,0,0,1263,1264,1265,1266,1267,1268,1269,1270,1201,1203,1204,1205,1206,0,
0,0,0,0,0,0,0,0,0,0,0,0,0,0,0,0,0,0,0,0,0,0,0,0,0,0,0,0,0,0,0,0,0,0,0,0,1275,1276,1277,1278,1279,1280,1281,1282,1207,1209,1210,1211,1212,0,
0,0,0,0,0,0,0,0,0,0,0,0,0,0,0,0,0,0,0,0,0,0,0,0,0,0,0,0,0,0,0,0,0,0,0,0,1275,0,0,0,0,0,0,0,1213,1215,1216,1217,1218,0,
0,0,0,0,0,0,0,0,0,0,0,0,0,0,0,0,0,0,0,0,0,0,0,0,0,0,0,0,0,0,0,0,0,0,0,0,0,0,0,0,0,0,0,0,0,0,0,0,0,0,
0,0,0,0,0,0,0,0,0,0,0,0,0,0,0,0,0,0,0,0,0,0,0,0,0,0,0,0,0,0,0,0,0,0,0,0,0,0,0,0,0,0,0,0,0,0,0,0,0,0,
0,0,0,0,0,0,0,0,0,0,0,0,0,0,0,0,0,0,0,0,0,0,0,0,0,0,0,0,0,0,0,0,0,0,0,0,0,0,0,0,0,0,0,0,0,0,0,0,0,0,
0,0,0,0,0,0,0,0,0,0,0,0,0,0,0,0,0,0,0,0,0,0,0,0,0,0,0,0,0,0,0,0,0,0,0,0,0,0,0,0,0,0,0,0,0,0,0,0,0,0,
0,0,0,0,0,0,0,0,0,0,0,0,0,0,0,0,0,0,0,0,0,0,0,0,0,0,0,0,0,0,0,0,0,0,0,0,0,0,0,0,0,0,0,0,0,0,0,0,0,0,
0,0,0,0,0,0,0,0,0,0,0,0,0,0,0,0,0,0,0,0,0,0,0,0,0,0,0,0,0,0,0,0,0,0,0,0,0,0,0,0,0,0,0,0,0,0,0,0,0,0,
0,0,0,0,0,0,0,0,0,0,0,0,0,0,0,0,0,0,0,0,0,0,0,0,0,0,0,0,0,0,0,0,0,0,0,0,0,0,0,0,0,0,0,0,0,0,0,0,0,0,
0,0,0,0,0,0,0,0,0,0,0,0,0,0,0,0,0,0,0,0,0,0,0,0,0,0,0,0,0,0,0,0,0,0,0,0,0,0,0,0,0,0,0,0,0,0,0,0,0,0,
0,0,0,0,0,0,0,0,0,0,0,0,0,0,0,0,0,0,0,0,0,0,0,0,0,0,0,0,0,0,0,0,0,0,0,0,0,0,0,0,0,0,0,0,0,0,0,0,0,0,
0,0,0,0,0,0,0,0,0,0,0,0,0,0,0,0,0,0,0,0,0,0,0,0,0,0,0,0,0,0,0,0,0,0,0,0,0,0,0,0,0,0,0,0,0,0,0,0,0,0,
0,0,0,0,0,0,0,0,0,0,0,0,0,0,0,0,0,0,0,0,0,0,0,0,0,0,0,0,0,0,0,0,0,0,0,0,0,0,0,0,0,0,0,0,0,0,0,0,0,0,
0,0,0,0,0,0,0,0,0,0,0,0,0,0,0,0,0,0,0,0,0,0,0,0,0,0,0,0,0,0,0,0,0,0,0,0,0,0,0,0,0,0,0,0,0,0,0,0,0,0,
0,0,0,0,0,0,0,0,0,0,0,0,0,0,0,0,0,0,0,0,0,0,0,0,0,0,0,0,0,0,0,0,0,0,0,0,0,0,0,0,0,0,0,0,0,0,0,0,0,0,
0,0,0,0,0,0,0,0,0,0,0,0,0,0,0,0,0,0,0,0,0,0,0,0,0,0,0,0,0,0,0,0,0,0,0,0,0,0,0,0,0,0,0,0,0,0,0,0,0,0,
0,0,0,0,0,0,0,0,0,0,0,0,0,0,0,0,0,0,0,0,0,0,0,0,0,0,0,0,0,0,0,0,0,0,0,0,0,0,0,0,0,0,0,0,0,0,0,0,0,0,
0,0,0,0,0,0,0,0,0,0,0,0,0,0,0,0,0,0,0,0,0,0,0,0,0,0,0,0,0,0,0,0,0,0,0,0,0,0,0,0,0,0,0,0,0,0,0,0,0,0
</data>
 </layer>
 <layer id="6" name="ladder" width="50" height="40">
  <data encoding="csv">
0,0,0,0,0,0,0,0,0,0,0,0,0,0,0,0,0,0,0,0,0,0,0,0,0,0,0,0,0,0,0,0,0,0,0,0,0,0,0,0,0,0,0,0,0,0,0,0,0,0,
0,0,0,0,0,0,0,0,0,0,0,0,0,0,0,0,0,0,0,0,0,0,0,0,0,0,0,0,0,0,0,0,0,0,0,0,0,0,0,0,0,0,0,0,0,0,0,0,0,0,
0,0,0,0,0,0,0,0,0,0,0,0,0,0,0,0,0,0,0,0,0,0,0,0,0,0,0,0,0,0,0,0,0,0,0,0,0,0,0,0,0,0,0,0,0,0,0,0,0,0,
0,0,0,0,0,0,0,0,0,0,0,0,0,0,0,0,0,0,0,0,0,0,0,0,0,0,0,0,0,0,0,0,0,0,0,0,0,0,0,0,0,0,0,0,0,0,0,0,0,0,
0,0,0,0,0,0,0,0,0,0,0,0,0,0,0,0,0,0,0,0,0,0,0,0,0,0,0,0,0,0,0,0,0,0,0,0,0,0,0,0,0,0,0,0,0,0,0,0,0,0,
0,0,0,0,0,0,0,0,0,0,0,0,0,0,0,0,0,0,0,0,0,0,0,0,0,0,0,0,0,0,0,0,0,0,0,0,0,0,0,0,0,0,0,0,0,0,0,0,0,0,
0,0,0,0,0,0,0,0,0,0,0,0,0,0,0,0,0,0,0,0,0,0,0,0,0,0,0,0,0,0,0,0,0,0,0,0,0,0,0,0,0,0,0,0,0,0,0,0,0,0,
0,0,0,0,0,0,0,0,0,0,0,0,0,0,0,0,0,0,0,0,0,0,0,0,0,0,0,0,0,0,0,0,0,0,0,0,0,0,0,0,0,0,0,0,0,0,0,0,0,0,
0,0,0,0,0,0,0,0,0,0,0,0,0,0,0,0,0,0,0,0,0,0,0,0,0,0,0,0,0,0,0,0,0,0,0,0,0,0,0,0,0,0,0,0,0,0,0,0,0,0,
0,0,0,0,0,0,0,0,0,0,0,0,0,0,0,0,0,0,0,0,0,0,0,0,0,0,0,0,0,0,0,0,0,0,0,0,0,0,0,0,0,0,0,0,0,0,0,0,0,0,
0,0,0,0,0,0,0,0,0,0,0,0,0,0,0,0,0,0,0,0,0,0,0,0,0,0,0,0,0,0,0,0,0,0,0,0,0,0,0,0,0,0,0,0,0,0,0,0,0,0,
0,0,0,0,0,0,0,0,0,0,0,0,0,0,0,0,0,0,0,0,0,0,0,0,0,0,0,0,0,0,0,0,0,0,0,0,0,0,0,0,0,0,0,0,0,0,0,0,0,0,
0,0,0,0,0,0,0,0,0,0,0,0,0,0,0,0,0,0,0,0,0,0,0,0,0,0,0,0,0,0,0,0,0,0,0,0,0,0,0,227,0,0,0,0,0,0,0,0,0,0,
0,0,0,0,0,0,0,0,0,0,0,0,0,0,0,0,0,0,0,0,0,0,0,0,0,0,0,0,0,0,0,0,0,0,0,0,0,0,0,251,0,0,0,0,0,0,0,0,0,0,
0,0,0,0,0,0,0,0,0,0,0,0,0,0,0,0,0,0,0,0,0,0,0,0,0,0,0,0,0,0,0,0,0,0,0,0,0,0,0,251,0,0,0,0,0,0,0,0,0,0,
0,0,0,0,0,0,0,0,0,0,0,0,0,0,0,0,0,0,0,0,0,0,0,0,0,0,0,0,0,0,0,0,0,0,0,0,0,0,0,251,0,0,0,0,0,0,0,0,0,0,
0,0,0,0,0,0,0,0,0,0,0,0,0,0,0,0,0,0,0,0,0,0,0,0,0,0,0,0,0,0,0,0,0,0,0,0,0,0,0,275,0,0,0,0,0,0,0,0,0,0,
0,0,0,0,0,0,0,0,0,0,0,0,0,0,0,0,0,0,0,0,0,0,0,0,0,0,0,0,0,0,0,0,0,0,0,227,0,0,0,0,0,0,0,0,0,0,0,0,0,0,
0,0,0,0,0,0,0,0,0,0,0,0,0,0,0,0,0,0,0,0,0,0,0,0,0,0,0,0,0,0,0,0,0,0,0,251,0,0,0,0,0,0,0,0,0,0,0,0,0,0,
0,0,0,0,0,0,0,0,0,0,0,0,0,0,0,0,0,0,0,0,0,0,0,0,0,0,0,0,0,0,0,0,0,0,0,275,0,0,0,0,0,0,0,0,0,0,0,0,0,0,
0,0,0,0,0,0,0,0,0,0,0,0,0,0,0,0,0,0,0,0,0,0,0,0,0,0,0,0,0,0,0,0,0,0,0,0,0,0,0,0,0,0,0,0,0,0,0,0,0,0,
0,0,0,0,0,0,0,0,0,0,0,0,0,0,0,0,0,0,0,0,0,0,0,0,0,0,0,0,0,0,0,0,0,0,0,0,0,0,0,0,0,0,0,0,0,0,0,0,0,0,
0,0,0,0,0,0,0,0,0,0,0,0,0,0,0,0,0,0,0,0,0,0,0,0,0,0,0,0,0,0,0,0,0,0,0,0,0,0,0,0,0,0,0,0,0,0,0,0,0,0,
0,0,0,0,0,0,0,0,0,0,0,0,0,0,0,0,0,0,0,0,0,0,0,0,0,0,0,0,0,0,0,0,0,0,0,0,0,0,0,0,0,0,0,0,0,0,0,0,0,0,
0,0,0,0,0,227,0,0,0,0,0,0,0,0,0,0,0,0,0,0,0,0,0,0,0,0,0,0,0,0,0,0,0,0,0,0,0,0,0,0,0,0,0,0,0,0,0,0,0,0,
0,0,0,0,0,251,0,0,0,0,0,0,0,0,0,0,0,0,0,0,0,0,0,0,0,0,0,0,0,0,0,0,0,0,0,0,0,0,0,0,0,0,0,0,0,0,0,0,0,0,
0,0,0,0,0,251,0,0,0,0,0,0,0,0,0,0,0,0,0,0,0,0,0,0,0,0,0,0,0,0,0,0,0,0,0,0,0,0,0,0,0,0,0,0,0,0,0,0,0,0,
0,0,0,0,0,251,0,0,0,0,0,0,0,0,0,0,0,0,0,0,0,0,0,0,0,0,0,0,0,0,0,0,0,0,0,0,0,0,0,0,0,0,0,0,0,0,0,0,0,0,
0,0,0,0,0,251,0,0,0,0,0,0,0,0,0,0,0,0,0,0,0,0,0,0,0,0,0,0,0,0,0,0,0,0,0,0,0,0,0,0,0,0,0,0,0,0,0,0,0,0,
0,0,0,0,0,0,0,0,0,0,0,0,0,0,0,0,0,0,0,0,0,0,0,0,0,0,0,0,0,0,0,0,0,0,0,0,0,0,0,0,0,0,0,0,0,0,0,0,0,0,
0,0,0,0,0,0,0,0,0,0,0,0,0,0,0,0,0,0,0,0,0,0,0,0,0,0,0,0,0,0,0,0,0,0,0,0,0,0,0,0,0,0,0,0,0,0,0,0,0,0,
0,0,0,0,0,0,0,0,0,0,0,0,0,0,0,0,0,0,0,0,227,0,0,0,0,0,0,0,0,0,0,0,0,0,0,0,0,0,0,0,0,0,0,0,0,0,0,0,0,0,
0,0,0,0,0,0,0,0,0,0,0,0,0,0,0,0,0,0,0,0,251,0,0,0,0,0,0,0,0,0,0,0,0,0,0,0,0,0,0,0,0,0,0,0,0,0,0,0,0,0,
0,0,0,0,0,0,0,0,0,0,0,0,0,0,0,0,0,0,0,0,251,0,0,0,0,0,0,0,0,0,0,0,0,0,0,0,0,0,0,0,0,0,0,0,0,0,0,0,0,0,
0,0,0,0,0,0,0,0,0,0,0,0,0,0,0,0,0,0,0,0,251,0,0,0,0,0,0,0,0,0,0,0,0,0,0,0,0,0,0,0,0,0,0,0,0,0,0,0,0,0,
0,0,0,0,0,0,0,0,0,0,0,0,0,0,0,0,0,0,0,0,251,0,0,0,0,0,0,0,0,0,0,0,0,0,0,0,0,0,0,0,0,0,0,0,0,0,0,0,0,0,
0,0,0,0,0,0,0,0,0,0,0,0,0,0,0,0,0,0,0,0,251,0,0,0,0,0,0,0,0,0,0,0,0,0,0,0,0,0,0,0,0,0,0,0,0,0,0,0,0,0,
0,0,0,0,0,0,0,0,0,0,0,0,0,0,0,0,0,0,0,0,275,0,0,0,0,0,0,0,0,0,0,0,0,0,0,0,0,0,0,0,0,0,0,0,0,0,0,0,0,0,
0,0,0,0,0,0,0,0,0,0,0,0,0,0,0,0,0,0,0,0,0,0,0,0,0,0,0,0,0,0,0,0,0,0,0,0,0,0,0,0,0,0,0,0,0,0,0,0,0,0,
0,0,0,0,0,0,0,0,0,0,0,0,0,0,0,0,0,0,0,0,0,0,0,0,0,0,0,0,0,0,0,0,0,0,0,0,0,0,0,0,0,0,0,0,0,0,0,0,0,0
</data>
 </layer>
 <objectgroup id="2" name="quest_ob"/>
 <objectgroup id="8" name="NPC">
  <object id="15" name="Frog" type="NPC" x="136" y="288" width="96" height="96">
   <properties>
    <property name="dialogue">RIBBIT i have been here for hours! /n
Help me win this game and i will share the prizes with you! //LISTEN UP //
Use WASD to move the yellow dot. /n
Avoid the red and pink ghosts, and collect all the points to win. //
Good luck!</property>
   </properties>
  </object>
  <object id="16" name="Rabbit" type="NPC" x="1288" y="664" width="96" height="96">
   <properties>
    <property name="dialogue">Drop into this well if you dare... /n 
and I’ll reward you with a cheese! //
Happy falling!</property>
   </properties>
  </object>
  <object id="17" name="Rat" type="NPC" x="1448" y="296" width="96" height="96">
   <properties>
    <property name="dialogue">Hey cuz! A Mouse God summoned with cheese? /n ...sounds fake. //
Anyway, there is a cheese stash in that maze.. but it is heavily guarded. //
Stay out of the guards’ sight — those rectangles in front of them? That’s their vision. /n 
If you step in, you’re busted. /n
Sneak in, grab the cheese, and get out. // Good luck, cuz.



</property>
   </properties>
  </object>
  <object id="21" name="Wiener" type="NPC" x="1056" y="1088" width="96" height="96">
   <properties>
    <property name="dialogue">GOOD HEAVENS!!
MY DOG!! 
MY DOG!! 
WHERE IS HE RUNNING OFF TO?! // 
Play him his favourite song to lure him back!
If you miss too many notes he wont return!! 
A picky fella he is...

</property>
   </properties>
  </object>
  <object id="24" name="Shrine" type="NPC" x="688" y="288" width="48" height="72"/>
 </objectgroup>
</map>
