<?xml version="1.0" encoding="UTF-8"?>
<map version="1.10" tiledversion="1.11.2" orientation="orthogonal" renderorder="right-down" width="46" height="19" tilewidth="32" tileheight="32" infinite="0" nextlayerid="4" nextobjectid="4">
 <tileset firstgid="1" source="sewer.tsx"/>
 <layer id="1" name="Tile Layer 1" width="46" height="19">
  <data encoding="csv">
361,361,361,361,361,362,363,364,1,1,2,3,4,5,6,7,5,6,5,5,5,5,5,5,5,5,5,5,5,5,5,5,5,5,5,5,5,5,5,5,5,5,5,5,5,6,
385,385,385,385,361,362,363,364,25,25,26,27,28,29,30,31,5,5,29,29,29,29,29,29,29,29,29,29,29,29,29,29,29,29,29,29,29,29,29,29,29,29,29,29,5,6,
385,386,387,388,361,362,363,364,49,49,50,51,52,53,54,55,5,29,53,53,53,53,53,53,53,53,53,53,53,53,53,53,53,53,53,53,53,53,53,53,53,53,53,53,5,6,
385,386,387,388,361,362,363,364,50,51,52,53,54,55,55,53,29,53,53,53,53,53,53,53,53,53,53,53,53,53,53,53,53,1,1,1,1,2,3,4,5,6,7,5,6,7,
385,386,387,388,361,362,363,364,49,50,51,52,53,54,55,53,1,1,1,1,1,1,1,1,1,1,1,1,1,1,2,3,4,5,6,7,7,7,7,7,7,7,7,29,30,31,
385,386,387,388,385,386,387,388,50,51,52,53,54,55,7,53,25,25,25,25,1,2,3,4,5,6,7,7,7,7,7,7,7,7,1,2,3,4,5,6,7,31,31,53,54,55,
385,386,387,388,364,364,364,49,50,51,52,53,54,55,31,53,49,49,49,49,25,26,27,28,29,30,31,31,31,31,31,31,31,31,25,26,27,28,29,30,31,55,55,53,54,55,
385,386,387,388,388,388,388,49,50,51,52,53,54,55,55,53,54,55,55,121,49,50,51,52,53,54,55,55,55,55,55,55,55,55,49,50,51,52,53,54,55,143,144,53,54,55,
151,152,153,152,152,158,159,157,158,159,158,159,157,158,159,148,149,150,151,152,146,147,148,149,150,151,152,153,152,152,153,157,158,159,160,161,162,163,164,165,166,167,168,151,151,151,
175,176,177,176,176,182,183,181,182,183,182,183,181,182,183,175,175,175,176,177,176,177,175,176,177,175,176,177,176,176,177,181,182,183,184,185,186,187,188,189,190,191,192,175,175,175,
199,200,201,200,205,206,207,205,206,207,206,207,205,206,207,199,200,201,199,200,201,195,199,200,201,199,200,201,199,200,201,201,206,207,208,209,210,211,212,213,214,215,216,199,199,199,
219,220,221,222,229,230,231,229,230,231,230,231,229,230,231,218,219,220,221,222,218,229,230,231,222,223,221,222,221,222,221,222,230,231,232,219,220,221,222,237,238,239,240,219,220,221,
243,244,245,246,253,254,255,243,244,245,246,243,244,245,246,244,245,246,246,241,244,253,254,255,246,244,244,245,245,246,245,246,244,245,256,247,245,245,245,245,262,263,264,244,245,246,
361,362,363,364,277,278,279,270,271,272,268,269,270,271,272,268,269,270,270,265,267,277,278,279,270,271,272,267,268,269,270,277,270,279,280,271,272,273,270,270,286,287,288,268,269,270,
385,386,387,388,301,302,303,294,295,296,292,293,294,295,296,290,291,292,293,294,295,301,302,303,299,300,301,302,303,304,305,306,307,308,309,310,311,312,304,305,306,307,308,309,310,311,
315,316,317,318,319,320,321,322,319,320,316,317,318,319,320,314,315,316,317,318,319,325,326,327,323,324,325,326,327,328,329,330,331,332,333,334,335,336,328,329,330,331,332,333,334,335,
339,340,341,342,343,344,345,346,345,346,347,348,349,350,351,352,353,354,355,356,357,349,350,351,338,339,340,341,342,343,344,345,346,347,348,349,350,351,352,353,354,355,356,357,358,359,
361,362,363,364,367,368,369,370,369,369,369,369,369,369,369,369,369,369,369,369,369,373,374,375,369,369,369,369,370,371,372,373,374,375,375,371,372,373,374,369,370,371,372,373,374,375,
385,386,387,388,397,398,399,372,373,374,375,375,375,375,375,375,375,375,375,375,375,397,398,399,375,375,375,375,375,375,375,375,375,375,375,369,369,369,369,369,369,369,369,369,370,371
</data>
 </layer>
 <layer id="2" name="floor" width="46" height="19">
  <data encoding="csv">
0,0,0,0,0,0,0,0,0,0,0,0,0,0,0,0,0,0,0,0,0,0,0,0,0,0,0,0,0,0,0,0,0,0,0,0,0,0,0,0,0,0,0,0,0,0,
0,0,0,0,0,0,0,0,0,0,0,0,0,0,0,0,0,0,0,0,0,0,0,0,0,0,0,0,0,0,0,0,0,0,0,0,0,0,0,0,0,0,0,0,0,0,
0,0,0,0,0,0,0,0,0,0,0,0,0,0,0,0,0,0,0,0,0,0,0,0,0,0,0,0,0,0,0,0,0,0,0,0,0,0,0,0,0,0,0,0,0,0,
0,0,0,0,0,0,0,0,0,0,0,0,0,0,0,0,0,0,0,0,0,0,0,0,0,0,0,0,0,0,0,0,0,0,0,0,0,0,0,0,0,0,0,0,0,0,
0,0,0,0,0,0,0,0,0,0,0,0,0,0,0,0,0,0,0,0,0,0,0,0,0,0,0,0,0,0,0,0,0,0,0,0,0,0,0,0,0,0,0,0,0,0,
0,0,0,0,0,0,0,0,0,0,0,0,0,0,0,0,0,0,0,0,0,0,0,0,0,0,0,0,0,0,0,0,0,0,0,0,0,0,0,0,0,0,0,0,0,0,
0,0,0,0,0,0,0,0,0,0,0,0,0,0,0,0,0,0,0,0,0,0,0,0,0,0,0,0,0,0,0,0,0,0,0,0,0,0,0,0,0,0,0,0,0,0,
0,0,0,0,0,0,0,0,0,0,0,0,0,0,0,0,0,0,0,0,0,0,0,0,0,0,0,0,0,0,0,0,0,0,0,0,0,0,0,0,0,0,0,0,0,0,
0,0,0,0,0,0,0,0,0,0,0,0,0,0,0,0,0,0,0,0,0,0,0,0,0,0,0,0,0,0,0,0,0,0,0,0,0,0,0,0,0,0,0,0,0,0,
0,0,0,0,0,0,0,0,0,0,0,0,0,0,0,0,0,0,0,0,0,0,0,0,0,0,0,0,0,0,0,0,0,0,0,0,0,0,0,0,0,0,0,0,0,0,
0,0,0,0,0,0,0,0,0,0,0,0,0,0,0,0,0,0,0,0,0,0,0,0,0,0,0,0,0,0,0,0,0,0,0,0,0,0,0,0,0,0,0,0,0,0,
221,218,218,218,218,218,218,218,218,218,218,218,218,218,218,218,218,218,219,220,221,222,218,219,220,221,222,218,219,220,221,222,220,221,218,219,220,221,222,218,219,220,221,222,221,222,
0,0,0,0,0,0,0,0,0,0,0,0,0,0,0,0,0,0,0,0,0,0,0,0,0,0,0,0,0,0,0,0,0,0,0,0,0,0,0,0,0,0,0,0,0,0,
0,0,0,0,0,0,0,0,0,0,0,0,0,0,0,0,0,0,0,0,0,0,0,0,0,0,0,0,0,0,0,0,0,0,0,0,0,0,0,0,0,0,0,0,0,0,
0,0,0,0,0,0,0,0,0,0,0,0,0,0,0,0,0,0,0,0,0,0,0,0,0,0,0,0,0,0,0,0,0,0,0,0,0,0,0,0,0,0,0,0,0,0,
0,0,0,0,0,0,0,0,0,0,0,0,0,0,0,0,0,0,0,0,0,0,0,0,0,0,0,0,0,0,0,0,0,0,0,0,0,0,0,0,0,0,0,0,0,0,
0,0,0,0,0,0,0,0,0,0,0,0,0,0,0,0,0,0,0,0,0,0,0,0,0,0,0,0,0,0,0,0,0,0,0,0,0,0,0,0,0,0,0,0,0,0,
0,0,0,0,0,0,0,0,0,0,0,0,0,0,0,0,0,0,0,0,0,0,0,0,0,0,0,0,0,0,0,0,0,0,0,0,0,0,0,0,0,0,0,0,0,0,
0,0,0,0,0,0,0,0,0,0,0,0,0,0,0,0,0,0,0,0,0,0,0,0,0,0,0,0,0,0,0,0,0,0,0,0,0,0,0,0,0,0,0,0,0,0
</data>
 </layer>
 <objectgroup id="3" name="NPC" class="NPC" offsetx="64" offsety="0">
  <properties>
   <property name="Name" value="SusMouse"/>
   <property name="dialogue">you can’t see…can you?//
You: I…don’t know how I got here… or what I was doing before …ACK! //
You: I-I remember now! We were looking for food… and got swept into here by the rain! My friend! I have to find him!//


Hearsay…there lives a MouseGod in these sewers… 
He is all knowing, all seeing and all powerful… and if you bring him 5 golden cheese, he will grant you a single wish… //
The sewer miasma clouds your vision, but the cheese has a purifying effect and you will slowly regain sight, with the blessing of the mousegod! Here, take this!
&lt;he puts a shiny, suspicious smelling cheese in your hands&gt;
&lt;the world suddenly brigtens...&gt;

The MouseGod is elusive, and only listens to those who give offerings at the Shrine… Let me show you where it is!


</property>
   <property name="type" value="NPC"/>
  </properties>
  <object id="2" name="SusMouse" type="NPC" x="1088" y="256" width="96" height="96">
   <properties>
    <property name="dialogue">you can't see…can you?//
You: I...don't know how I got here… or what I was doing before …ACK! //
You: I-I remember now! We were looking for food… and got swept into here by the rain! My friend! I have to find him!//
Hearsay...there lives a MouseGod in these sewers...
He is all knowing, all seeing and all powerful… and if you bring him 5 golden cheese, he will grant you a single wish... //
The sewer miasma clouds your vision, but the cheese has a purifying effect and you will slowly regain sight, with the blessing of the Mousegod! Here, take this!//
&lt;he puts a shiny, suspicious smelling cheese in your hands&gt;//
The MouseGod is elusive, and only listens to those who give offerings at the Shrine… Let me show you where it is!</property>
   </properties>
  </object>
 </objectgroup>
</map>
