<?xml version="1.0" encoding="UTF-8"?>
<map version="1.10" tiledversion="1.11.2" orientation="orthogonal" renderorder="right-down" width="25" height="20" tilewidth="32" tileheight="32" infinite="0" nextlayerid="6" nextobjectid="8">
 <tileset firstgid="1" source="maze tile set.tsx"/>
 <tileset firstgid="183" source="mazetile.tsx"/>
 <layer id="4" name="Tile Layer 4" width="25" height="20">
  <data encoding="csv">
0,0,0,0,185,0,0,185,0,185,0,185,185,185,185,185,185,185,0,0,0,0,185,185,0,
0,0,0,185,185,185,185,185,0,185,0,185,185,185,185,185,185,185,185,185,185,185,185,185,0,
0,0,185,185,185,185,185,185,185,185,185,185,185,185,185,185,185,185,185,185,185,185,185,185,0,
0,0,185,185,185,185,185,185,185,185,185,185,185,185,185,185,185,185,185,185,185,185,185,185,0,
0,185,185,185,185,185,185,185,185,185,185,185,185,185,185,185,185,185,185,185,185,185,185,185,0,
185,185,185,185,185,185,185,185,185,185,185,185,185,185,185,185,185,185,185,185,185,185,185,0,0,
185,185,185,185,185,185,185,185,185,185,185,185,185,185,185,185,185,185,185,185,185,185,185,0,0,
185,185,185,185,185,185,185,185,185,185,185,185,185,185,185,185,185,185,185,185,185,185,185,0,0,
185,185,185,185,185,185,185,185,185,185,185,185,185,185,185,185,185,185,185,185,185,185,185,0,185,
185,185,185,185,185,185,185,185,185,185,185,185,185,185,185,185,185,185,185,185,185,185,185,0,185,
185,185,185,185,185,185,185,185,185,185,185,185,185,185,185,185,185,185,185,185,185,185,185,185,185,
185,185,185,185,185,185,185,185,185,185,185,185,185,185,185,185,185,185,185,185,185,185,185,185,0,
185,185,185,185,185,185,185,185,185,185,185,185,185,185,185,185,185,185,185,185,185,185,185,185,0,
185,185,185,185,185,185,185,185,185,185,185,185,185,185,185,185,185,185,185,185,185,185,185,185,0,
0,185,185,185,185,185,185,185,185,185,185,185,185,185,185,185,185,185,185,0,185,185,185,185,0,
0,185,185,185,185,185,185,185,185,185,185,185,185,185,185,185,185,185,185,185,185,185,185,185,0,
0,185,185,185,185,185,185,185,185,185,185,185,185,185,185,185,185,185,185,185,185,185,185,0,0,
0,0,185,185,185,185,185,185,185,185,185,185,185,185,185,185,185,185,185,185,185,185,185,0,0,
0,0,185,185,185,185,185,185,185,185,185,185,185,185,185,185,185,0,185,185,185,185,185,0,0,
0,0,185,0,0,185,185,185,0,185,185,185,185,185,185,185,185,0,185,0,185,0,185,0,0
</data>
 </layer>
 <layer id="1" name="Tile Layer 1" width="25" height="20">
  <data encoding="csv">
184,184,184,184,184,184,184,184,184,184,184,184,184,184,184,184,184,184,184,184,184,184,184,184,184,
184,184,184,184,184,184,184,184,184,184,184,184,184,184,184,184,184,184,184,184,184,184,184,184,184,
184,184,184,184,184,184,184,184,184,184,184,184,184,184,184,184,184,184,184,184,184,184,184,184,184,
184,184,184,184,184,184,184,184,184,184,184,184,184,184,184,184,184,184,184,184,184,184,184,184,184,
184,184,184,184,184,184,184,184,184,184,184,184,184,184,184,184,184,184,184,184,184,184,184,184,184,
184,184,184,184,184,184,184,184,184,184,184,184,184,184,184,184,184,184,184,184,184,184,184,184,184,
184,184,184,184,184,184,184,184,184,184,184,184,184,184,184,184,184,184,184,184,184,184,184,184,184,
184,184,184,184,184,184,184,184,184,184,184,184,184,184,184,184,184,184,184,184,184,184,184,184,184,
184,184,184,184,184,184,184,184,184,184,184,184,184,184,184,184,184,184,184,184,184,184,184,184,184,
184,184,184,184,184,184,184,184,184,184,184,184,184,184,184,184,184,184,184,184,184,184,184,184,184,
184,184,184,184,184,184,184,184,184,184,184,184,184,184,184,184,184,184,184,184,184,184,184,184,184,
184,184,184,184,184,184,184,184,184,184,184,184,184,184,184,184,184,184,184,184,184,184,184,184,184,
184,184,184,184,184,184,184,184,184,184,184,184,184,184,184,184,184,184,184,184,184,184,184,184,184,
184,184,184,184,184,184,184,184,184,184,184,184,184,184,184,184,184,184,184,184,184,184,184,184,184,
184,184,184,184,184,184,184,184,184,184,184,184,184,184,184,184,184,184,184,184,184,184,184,184,184,
184,184,184,184,184,184,184,184,184,184,184,184,184,184,184,184,184,184,184,184,184,184,184,184,184,
184,184,184,184,184,184,184,184,184,184,184,184,184,184,184,184,184,184,184,184,184,184,184,184,184,
184,184,184,184,184,184,184,184,184,184,184,184,184,184,184,184,184,184,184,184,184,184,184,184,184,
184,184,184,184,184,184,184,184,184,184,184,184,184,184,184,184,184,184,184,184,184,184,184,184,184,
184,184,184,184,184,184,184,184,184,184,184,184,184,184,184,184,184,184,184,184,184,184,184,184,184
</data>
 </layer>
 <layer id="3" name="Tile Layer 3" width="25" height="20">
  <data encoding="csv">
185,185,185,185,185,185,185,185,185,185,185,185,185,0,0,0,185,185,185,185,185,185,185,185,185,
185,0,0,0,0,0,0,0,0,0,0,0,0,0,0,0,0,0,0,0,0,0,0,0,185,
185,0,0,0,0,0,0,0,0,0,0,0,0,0,0,0,0,0,0,0,0,0,0,0,185,
185,0,0,0,0,0,0,0,0,0,0,0,0,0,0,0,0,0,0,0,0,0,0,0,185,
185,0,0,0,0,0,0,0,0,0,0,0,0,0,0,0,0,0,0,0,0,0,0,0,185,
185,0,0,0,0,0,0,0,0,0,0,0,0,0,0,0,0,0,0,0,0,0,0,0,185,
185,0,0,0,0,0,0,0,0,0,0,0,0,0,0,0,0,0,0,0,0,0,0,0,185,
185,0,0,0,0,0,0,0,0,0,0,0,0,0,0,0,0,0,0,0,0,0,0,0,185,
185,0,0,0,0,0,0,0,0,0,0,0,0,0,0,0,0,0,0,0,0,0,0,0,185,
185,0,0,0,0,0,0,0,0,0,0,0,0,0,0,0,0,0,0,0,0,0,0,0,185,
185,0,0,0,0,0,0,0,0,0,0,0,0,0,0,0,0,0,0,0,0,0,0,0,185,
185,0,0,0,0,0,0,0,0,0,0,0,0,0,0,0,0,0,0,0,0,0,0,0,185,
185,0,0,0,0,0,0,0,0,0,0,0,0,0,0,0,0,0,0,0,0,0,0,0,185,
185,0,0,0,0,0,0,0,0,0,0,0,0,0,0,0,0,0,0,0,0,0,0,0,185,
185,185,0,0,0,0,0,0,0,0,0,0,0,0,0,0,0,0,0,0,0,0,0,185,185,
185,185,0,0,0,0,0,0,0,0,0,0,0,0,0,0,0,0,0,0,0,0,0,185,185,
185,185,0,0,0,0,0,0,0,0,0,0,0,0,0,0,0,0,0,0,0,0,0,0,185,
185,185,0,0,0,0,0,0,0,0,0,0,0,0,0,0,0,0,0,0,0,0,0,0,185,
185,185,0,0,0,0,0,0,0,0,0,0,0,0,0,0,0,0,0,0,0,0,0,0,185,
185,185,185,185,185,185,185,185,185,185,185,0,0,0,185,185,185,185,185,185,185,185,185,185,185
</data>
 </layer>
 <layer id="2" name="floor" width="25" height="20">
  <data encoding="csv">
0,0,0,0,0,0,0,0,0,0,0,0,0,0,0,0,0,0,0,0,0,0,0,0,0,
0,183,183,183,183,183,183,183,183,183,183,183,183,0,0,0,183,183,183,183,183,183,183,183,0,
0,183,0,0,0,0,0,0,0,0,0,0,0,0,0,0,0,0,0,0,0,0,0,183,0,
0,183,0,0,0,0,0,0,0,0,0,0,0,0,0,0,0,0,0,0,0,0,0,183,0,
0,183,0,0,0,0,183,0,0,0,0,0,0,0,0,0,0,0,0,0,0,0,0,183,0,
0,183,0,0,183,183,183,183,183,183,183,183,0,0,0,0,183,183,183,183,183,0,0,183,0,
0,183,0,0,0,0,0,183,0,0,0,0,0,0,0,0,0,0,183,0,0,0,0,183,0,
0,183,0,0,0,0,0,183,0,0,0,0,0,0,0,0,0,0,183,0,0,0,0,183,0,
0,183,0,0,0,0,0,183,0,0,0,0,0,0,0,0,0,0,183,183,183,0,0,183,0,
0,183,0,0,0,0,0,0,0,0,0,0,0,0,0,0,0,0,0,0,0,0,0,183,0,
0,183,0,0,0,0,0,0,0,0,183,0,0,0,183,183,0,0,0,0,0,0,0,183,0,
0,183,183,183,183,183,0,0,0,0,183,0,0,0,0,183,183,183,183,183,0,0,0,183,0,
0,183,0,0,0,0,0,0,0,0,0,0,0,0,0,183,0,0,0,0,0,0,0,183,0,
0,183,0,0,0,0,0,0,0,0,0,0,0,0,0,183,0,0,0,0,0,0,0,183,0,
0,183,0,0,0,0,0,0,0,183,183,183,183,183,183,183,0,0,0,183,183,183,183,183,0,
0,183,0,0,0,183,0,0,0,0,0,0,0,0,0,0,0,0,0,0,0,0,0,183,0,
0,183,0,0,0,183,0,0,0,0,0,0,0,0,0,0,0,0,0,0,0,0,0,183,0,
0,183,0,0,0,183,0,0,0,0,0,0,0,0,0,0,0,0,0,0,0,0,0,183,0,
0,183,183,183,183,183,183,183,183,183,183,0,0,0,183,183,183,183,183,183,183,183,183,183,0,
0,0,0,0,0,0,0,0,0,0,0,0,0,0,0,0,0,0,0,0,0,0,0,0,0
</data>
 </layer>
 <objectgroup id="5" name="Object Layer 1">
  <object id="1" name="npc" type="NPC" x="416" y="96" width="32" height="32">
   <properties>
    <property name="direction" value="horizontal"/>
    <property name="patrol_length" type="int" value="7"/>
    <property name="start_direction" value="bottom"/>
   </properties>
  </object>
  <object id="2" name="npc" type="NPC" x="672" y="352" width="32" height="32">
   <properties>
    <property name="direction" value="vertical"/>
    <property name="patrol_length" type="int" value="4"/>
    <property name="start_direction" value="up"/>
   </properties>
  </object>
  <object id="3" name="npc" type="NPC" x="160" y="416" width="32" height="32">
   <properties>
    <property name="direction" value="horizontal"/>
    <property name="patrol_length" type="int" value="4"/>
    <property name="start_direction" value="right"/>
   </properties>
  </object>
  <object id="4" name="npc" type="NPC" x="544" y="512" width="32" height="32">
   <properties>
    <property name="direction" value="horizontal"/>
    <property name="patrol_length" type="int" value="4"/>
    <property name="start_direction" value="left"/>
   </properties>
  </object>
  <object id="5" name="npc" type="NPC" x="96" y="256" width="32" height="32">
   <properties>
    <property name="direction" value="vertical"/>
    <property name="patrol_length" type="int" value="3"/>
    <property name="start_direction" value="up"/>
   </properties>
  </object>
  <object id="6" name="spawn" type="spawn" x="448" y="0" width="32" height="32"/>
  <object id="7" name="exit" type="exit" x="352" y="608" width="96" height="32"/>
 </objectgroup>
</map>
