<?xml version="1.0" encoding="UTF-8"?>
<map version="1.10" tiledversion="1.11.2" orientation="orthogonal" renderorder="right-down" width="25" height="90" tilewidth="32" tileheight="32" infinite="0" nextlayerid="11" nextobjectid="128">
 <tileset firstgid="1" source="sewer.tsx"/>
 <tileset firstgid="577" source="maze tile set.tsx"/>
 <tileset firstgid="759" source="quest1brick.tsx"/>
 <tileset firstgid="760" source="quest1/quest1brick2.tsx"/>
 <tileset firstgid="761" source="quest1brick3.tsx"/>
 <tileset firstgid="762" source="quest1obs1.tsx"/>
 <tileset firstgid="763" source="quest1obs2.tsx"/>
 <tileset firstgid="766" source="quest1obs3.tsx"/>
 <tileset firstgid="767" source="quest1obs4.tsx"/>
 <layer id="9" name="Tile Layer 1" width="25" height="90">
  <data encoding="csv">
760,760,760,760,760,760,760,760,760,760,759,759,760,760,760,760,759,759,759,760,760,760,760,760,760,
760,760,760,759,759,759,759,759,760,760,760,759,760,760,760,760,760,759,759,759,760,759,759,760,760,
760,759,759,759,759,760,760,759,759,760,760,760,760,760,759,760,760,760,760,760,760,760,759,759,760,
760,760,760,760,760,760,760,760,760,760,760,760,759,759,759,759,760,760,760,759,760,760,760,759,760,
760,759,759,760,760,760,760,759,759,760,760,760,760,760,760,760,759,759,759,759,760,760,760,760,760,
760,759,759,759,760,760,760,759,759,759,760,760,760,760,760,760,760,759,759,759,760,759,760,760,760,
760,760,760,759,759,760,759,759,759,759,760,760,759,759,760,760,760,760,760,760,760,759,759,759,760,
760,760,760,759,760,760,760,760,760,760,760,760,760,760,759,759,760,760,760,760,759,759,759,760,760,
761,761,761,761,761,761,761,761,761,761,761,761,761,761,761,761,761,761,761,761,761,761,761,761,761,
761,761,761,761,761,761,761,761,761,761,761,761,761,761,761,761,761,761,761,761,761,761,761,761,761,
761,759,760,759,759,760,760,760,760,760,760,760,760,760,760,760,759,759,759,759,760,760,760,759,761,
761,760,760,760,759,759,760,760,760,760,760,759,760,760,760,760,760,760,760,760,759,760,760,759,761,
761,759,760,760,760,759,760,759,760,762,760,760,760,759,760,760,760,760,760,760,767,759,760,759,761,
761,759,760,760,767,760,760,759,759,760,759,760,760,759,760,760,759,759,760,760,760,760,760,760,761,
761,759,760,759,760,760,760,759,759,759,759,760,760,760,760,759,763,764,765,760,760,760,760,760,761,
761,760,760,759,759,759,760,760,759,760,760,760,760,759,759,759,759,760,760,760,760,760,760,760,761,
761,760,759,759,759,759,760,760,760,760,760,760,767,760,760,760,760,760,760,760,760,760,760,760,761,
761,760,760,760,760,760,760,760,760,760,760,760,759,759,760,760,760,760,759,759,759,760,762,760,761,
761,760,760,760,760,762,759,759,759,759,760,760,760,759,760,760,762,760,760,759,759,759,760,759,761,
761,760,760,759,759,759,759,760,760,759,759,760,760,760,760,760,759,760,760,760,760,760,760,760,761,
761,760,760,760,760,760,760,760,760,760,760,760,766,760,759,759,759,759,760,760,760,759,760,760,761,
761,760,760,759,759,760,760,760,760,759,759,760,760,760,760,760,760,760,759,759,759,759,760,760,761,
761,760,760,763,764,765,760,760,760,759,760,760,760,760,760,760,760,760,760,759,759,759,760,759,761,
761,760,760,760,760,759,759,760,759,759,760,760,760,760,760,760,760,760,760,760,767,760,760,759,761,
761,760,760,760,760,759,759,760,760,760,760,760,760,759,759,760,760,760,760,760,760,760,759,759,761,
761,760,760,760,760,760,760,760,760,760,760,759,759,759,759,760,760,760,760,760,760,760,760,760,761,
761,760,760,760,760,760,759,759,760,760,760,760,759,759,763,764,765,760,760,760,760,760,760,760,761,
761,759,759,759,760,760,760,759,760,760,760,760,760,760,760,760,760,760,760,762,760,760,759,759,761,
761,760,760,759,759,766,760,760,760,760,759,760,760,760,760,759,759,759,759,759,760,760,760,759,761,
761,760,760,760,760,760,760,760,759,759,759,759,760,759,759,759,759,760,760,759,759,760,760,760,761,
761,760,760,759,760,760,760,760,760,760,760,760,760,760,759,759,760,760,760,760,759,759,759,760,761,
761,760,760,759,760,760,760,759,759,759,759,759,760,760,760,759,760,760,760,760,760,759,759,759,761,
761,760,759,759,760,759,759,759,759,760,760,759,759,760,760,760,760,760,759,760,766,760,760,760,761,
761,759,759,760,760,763,764,765,760,760,760,760,760,760,760,760,760,759,759,759,760,760,760,759,761,
761,760,760,760,760,759,759,760,760,760,760,759,759,760,760,760,760,760,760,760,759,759,759,759,761,
761,760,760,760,760,759,759,759,760,760,760,759,759,759,760,760,760,760,760,760,760,759,759,759,761,
761,760,759,759,759,760,760,760,760,760,760,759,759,759,760,760,759,759,760,760,760,760,760,760,761,
761,760,760,762,759,759,760,759,759,760,760,760,760,760,760,759,759,759,760,760,760,760,760,760,761,
761,760,760,760,760,760,760,760,759,759,760,760,760,759,759,759,759,760,760,760,760,760,760,766,761,
761,759,760,760,760,759,760,760,760,759,760,760,760,760,760,760,760,760,762,760,760,760,760,760,761,
761,760,759,759,759,759,760,760,760,760,760,763,764,765,760,760,760,760,759,759,760,760,760,760,761,
761,760,760,759,759,759,760,759,760,760,760,760,760,760,760,760,760,759,759,760,760,760,760,759,761,
761,760,760,760,760,760,760,759,759,759,760,760,759,759,759,760,760,760,759,760,760,760,760,760,761,
761,760,760,760,762,760,759,759,759,759,760,760,760,760,759,759,760,760,760,760,760,759,760,760,761,
761,760,760,760,760,760,760,760,760,760,760,760,760,760,760,760,760,760,760,759,759,759,759,760,761,
761,759,766,760,760,760,760,760,760,760,760,760,760,760,759,759,760,760,760,760,760,760,760,759,761,
761,759,759,760,759,759,760,760,759,759,759,760,760,760,760,760,766,760,760,760,760,760,760,760,761,
761,760,760,760,760,759,759,760,759,759,759,760,760,760,760,760,760,760,760,759,759,760,760,760,761,
761,760,759,760,760,760,763,764,765,760,760,760,759,760,760,760,760,760,760,759,760,760,760,760,761,
761,759,759,760,760,760,760,760,760,760,760,760,759,759,760,760,760,760,760,760,760,760,760,760,761,
761,759,759,760,759,760,760,760,760,760,760,760,760,760,760,760,760,759,759,760,760,760,760,759,761,
761,760,760,760,759,759,759,760,760,760,759,759,759,759,759,760,760,760,759,767,760,760,760,760,761,
761,760,760,759,759,759,759,760,759,759,762,759,760,760,759,759,760,760,760,760,760,759,760,760,761,
761,760,760,760,760,760,760,760,760,760,760,760,760,760,760,760,760,760,760,759,759,759,759,760,761,
761,760,760,760,760,760,760,760,759,759,760,760,760,760,759,759,760,760,760,760,760,760,760,759,761,
761,760,760,760,760,766,760,760,759,759,759,760,760,760,759,767,759,760,760,760,760,760,760,760,761,
761,760,760,760,760,760,759,760,760,760,759,759,760,759,759,759,762,760,760,759,759,760,760,760,761,
761,759,759,759,760,760,760,763,764,765,759,759,759,759,760,760,760,760,759,759,759,760,760,760,761,
761,760,760,759,762,760,760,760,760,760,760,759,760,760,760,760,759,759,759,759,760,760,760,760,761,
761,760,760,760,760,760,760,760,760,760,760,760,760,760,760,760,760,760,760,760,762,760,760,760,761,
761,760,760,759,759,760,760,760,760,760,760,760,760,760,760,760,760,760,760,760,759,759,760,760,761,
761,760,760,759,759,759,760,760,760,760,760,760,760,759,759,759,759,759,760,760,760,759,760,760,761,
761,760,759,759,759,759,760,760,759,759,762,759,759,760,759,763,764,765,759,760,760,760,760,760,761,
761,759,759,760,760,760,760,759,759,759,760,760,760,760,760,760,760,760,760,760,760,760,759,759,761,
761,760,760,760,760,767,759,759,759,760,760,759,759,760,760,760,760,759,759,760,760,760,760,760,761,
761,760,760,760,760,760,760,760,760,760,760,759,759,759,760,760,760,759,759,762,760,760,760,760,761,
761,760,760,760,760,762,760,760,760,760,766,760,760,759,759,760,759,759,759,759,760,760,759,759,761,
761,760,760,760,760,760,760,760,760,760,760,760,760,759,759,759,759,760,760,760,760,759,759,759,761,
761,760,760,759,759,759,759,759,760,760,760,760,760,760,759,763,764,765,760,759,759,759,759,760,761,
761,759,759,759,759,760,760,759,762,760,760,760,760,760,760,760,760,760,760,760,760,760,760,760,761,
761,760,766,760,760,760,760,760,760,760,760,760,759,759,759,759,760,760,760,759,762,760,760,759,761,
761,759,759,760,760,760,760,759,759,760,760,760,760,760,760,760,759,759,759,759,760,760,760,760,761,
761,759,759,759,760,760,760,759,759,759,760,760,760,760,760,760,760,759,759,759,760,759,760,760,761,
761,760,759,759,760,762,760,760,759,759,767,760,760,760,760,760,760,760,760,760,760,760,759,759,761,
761,760,760,759,760,760,760,760,760,759,759,759,760,760,762,759,759,759,759,759,766,760,760,759,761,
761,760,760,760,760,763,764,765,760,760,760,760,760,759,759,759,759,760,760,759,759,760,760,760,761,
761,760,760,760,759,759,759,759,760,760,760,759,760,760,760,760,760,760,760,760,760,760,760,760,761,
761,760,760,760,760,760,760,760,759,759,760,759,760,759,759,760,760,767,760,759,759,760,760,760,761,
761,759,760,760,762,760,760,760,760,759,759,759,760,759,759,759,760,760,760,759,759,759,760,760,761,
761,759,760,760,759,759,760,760,760,760,760,760,760,763,764,765,759,760,759,759,759,759,760,766,761,
761,760,760,759,759,766,760,760,760,760,760,760,760,760,760,759,759,759,760,760,760,760,760,759,761,
761,759,759,759,759,760,760,760,760,760,760,760,760,760,760,760,759,760,760,760,760,760,760,760,761,
761,760,760,759,759,760,760,760,760,760,760,759,760,760,760,760,759,759,759,759,760,760,760,760,761,
761,760,760,760,760,760,760,760,760,760,760,760,760,760,760,760,760,760,760,760,760,760,760,760,761,
761,760,760,767,759,760,760,760,760,760,760,760,760,760,760,766,760,760,760,760,759,759,760,760,761,
761,760,760,759,759,759,760,760,760,760,760,760,760,759,759,759,759,759,760,760,760,759,760,760,761,
761,760,759,759,759,759,760,760,759,759,760,759,759,759,759,760,760,759,759,760,760,760,760,760,761,
761,761,761,761,761,761,761,761,761,761,761,761,761,761,761,761,761,761,761,761,761,761,761,761,761,
761,761,761,761,761,761,761,761,761,761,761,761,761,761,761,761,761,761,761,761,761,761,761,761,761,
761,761,761,761,761,761,761,761,761,761,761,761,761,761,761,761,761,761,761,761,761,761,761,761,761
</data>
 </layer>
 <objectgroup id="3" name="Platforms" class="Platforms">
  <object id="1" type="platform" x="0" y="256" width="800" height="64"/>
  <object id="3" type="floor" x="0" y="2784" width="800" height="96"/>
  <object id="4" type="text" x="288" y="192" width="272" height="19">
   <properties>
    <property name="Text" value="Press SPACE to start!"/>
   </properties>
   <text fontfamily="Terminal" wrap="1" color="#ffffff" halign="center">Press SPACE to start!</text>
  </object>
  <object id="47" type="wall" x="0" y="320" width="32" height="2464"/>
  <object id="49" type="wall" x="768" y="320" width="32" height="2464"/>
  <object id="52" type="spawn" x="224" y="224" width="32" height="32"/>
  <object id="54" type="obstacle" x="288" y="384" width="32" height="32"/>
  <object id="55" type="obstacle" x="640" y="384" width="32" height="32"/>
  <object id="56" type="obstacle" x="128" y="416" width="32" height="32"/>
  <object id="58" type="obstacle" x="384" y="512" width="32" height="32"/>
  <object id="59" type="obstacle" x="704" y="544" width="32" height="32"/>
  <object id="60" type="obstacle" x="512" y="576" width="32" height="32"/>
  <object id="61" type="obstacle" x="160" y="576" width="32" height="32"/>
  <object id="62" type="obstacle" x="384" y="640" width="32" height="32"/>
  <object id="63" type="obstacle" x="640" y="736" width="32" height="32"/>
  <object id="64" type="obstacle" x="512" y="448" width="96" height="32"/>
  <object id="66" type="obstacle" x="96" y="704" width="96" height="32"/>
  <object id="68" type="obstacle" x="448" y="832" width="96" height="32"/>
  <object id="69" type="obstacle" x="608" y="864" width="32" height="32"/>
  <object id="70" type="obstacle" x="160" y="896" width="32" height="32"/>
  <object id="73" type="obstacle" x="640" y="1024" width="32" height="32"/>
  <object id="74" type="obstacle" x="160" y="1056" width="96" height="32"/>
  <object id="76" type="obstacle" x="352" y="1280" width="96" height="32"/>
  <object id="78" type="obstacle" x="576" y="1248" width="32" height="32"/>
  <object id="79" type="obstacle" x="736" y="1216" width="32" height="32"/>
  <object id="80" type="obstacle" x="96" y="1184" width="32" height="32"/>
  <object id="81" type="obstacle" x="128" y="1376" width="32" height="32"/>
  <object id="85" type="obstacle" x="512" y="1472" width="32" height="32"/>
  <object id="88" type="obstacle" x="608" y="1632" width="32" height="32"/>
  <object id="89" type="obstacle" x="192" y="1536" width="96" height="32"/>
  <object id="90" type="obstacle" x="64" y="1440" width="32" height="32"/>
  <object id="92" type="obstacle" x="320" y="1664" width="32" height="32"/>
  <object id="93" type="obstacle" x="480" y="1760" width="32" height="32"/>
  <object id="94" type="obstacle" x="640" y="1888" width="32" height="32"/>
  <object id="95" type="obstacle" x="512" y="1792" width="32" height="32"/>
  <object id="96" type="obstacle" x="224" y="1824" width="96" height="32"/>
  <object id="97" type="obstacle" x="160" y="1760" width="32" height="32"/>
  <object id="98" type="obstacle" x="128" y="1856" width="32" height="32"/>
  <object id="99" type="obstacle" x="160" y="2048" width="32" height="32"/>
  <object id="100" type="obstacle" x="160" y="2112" width="32" height="32"/>
  <object id="101" type="obstacle" x="320" y="2112" width="32" height="32"/>
  <object id="102" type="obstacle" x="320" y="1984" width="32" height="32"/>
  <object id="104" type="obstacle" x="480" y="1984" width="96" height="32"/>
  <object id="105" type="obstacle" x="608" y="2080" width="32" height="32"/>
  <object id="106" type="obstacle" x="480" y="2176" width="96" height="32"/>
  <object id="107" type="obstacle" x="640" y="2240" width="32" height="32"/>
  <object id="108" type="obstacle" x="640" y="2368" width="32" height="32"/>
  <object id="109" type="obstacle" x="448" y="2368" width="32" height="32"/>
  <object id="110" type="obstacle" x="544" y="2464" width="32" height="32"/>
  <object id="111" type="obstacle" x="736" y="2528" width="32" height="32"/>
  <object id="113" type="obstacle" x="416" y="2528" width="96" height="32"/>
  <object id="114" type="obstacle" x="160" y="2400" width="96" height="32"/>
  <object id="115" type="obstacle" x="160" y="2336" width="32" height="32"/>
  <object id="116" type="obstacle" x="320" y="2336" width="32" height="32"/>
  <object id="117" type="obstacle" x="256" y="2208" width="32" height="32"/>
  <object id="118" type="obstacle" x="64" y="2240" width="32" height="32"/>
  <object id="119" type="obstacle" x="128" y="2496" width="32" height="32"/>
  <object id="120" type="obstacle" x="160" y="2560" width="32" height="32"/>
  <object id="123" type="obstacle" x="480" y="2688" width="32" height="32"/>
  <object id="124" type="obstacle" x="96" y="2688" width="32" height="32"/>
  <object id="126" x="288" y="64" width="83" height="19">
   <text wrap="1" color="#ffffff">Hello World</text>
  </object>
 </objectgroup>
</map>
