<?xml version="1.0" encoding="UTF-8"?>
<map version="1.10" tiledversion="1.11.2" orientation="orthogonal" renderorder="right-down" width="50" height="40" tilewidth="32" tileheight="32" infinite="0" nextlayerid="7" nextobjectid="13">
 <tileset firstgid="1" source="sewer.tsx"/>
 <tileset firstgid="577" source="dank.tsx"/>
 <tileset firstgid="1153" source="quest1hole.tsx"/>
 <tileset firstgid="1161" source="quest1mansion.tsx"/>
 <layer id="1" name="Tile Layer 1" width="50" height="40">
  <data encoding="csv">
493,493,493,517,517,517,517,517,517,517,517,517,517,517,517,517,517,493,493,493,493,493,493,517,517,517,517,517,541,541,541,541,541,542,517,517,517,541,541,541,517,517,518,519,520,521,522,523,524,525,
517,517,517,541,541,541,541,541,541,541,541,541,541,541,541,541,541,517,517,517,517,517,517,541,541,541,541,541,565,565,565,565,565,566,541,541,541,565,565,565,541,541,542,543,544,545,546,547,548,549,
541,541,541,565,565,565,565,565,565,565,565,565,565,565,565,565,565,541,541,541,541,541,541,565,565,565,565,565,565,566,567,568,569,570,565,565,565,565,566,567,565,565,566,567,568,569,570,571,572,573,
565,565,565,565,566,567,568,569,570,571,572,573,574,575,52,53,54,565,565,565,565,565,565,565,566,567,1,2,3,4,5,6,7,8,9,10,11,12,13,14,15,16,17,18,19,20,21,22,23,24,
25,26,27,28,29,30,31,32,31,32,30,31,32,27,28,29,30,31,32,31,32,33,34,35,36,37,38,39,40,41,42,43,40,41,42,43,44,40,41,42,43,40,41,42,43,44,45,46,47,48,
49,50,51,52,53,54,55,56,55,56,54,55,56,51,52,53,54,55,56,55,56,57,58,59,60,61,62,63,64,65,66,67,64,65,66,67,68,64,65,66,67,64,65,66,67,68,69,70,71,72,
73,74,75,76,77,78,78,79,79,80,78,79,78,78,78,79,78,79,80,78,79,81,82,83,84,85,86,87,88,89,90,76,77,78,79,76,78,79,79,80,91,78,79,90,91,92,93,94,95,96,
97,98,99,100,101,102,102,103,103,104,102,103,102,102,102,103,102,103,104,102,103,105,106,107,108,109,110,111,112,113,114,100,101,102,103,100,102,103,103,104,115,102,103,114,115,116,117,118,119,120,
121,122,123,124,125,126,126,127,127,128,126,127,128,126,126,127,126,127,128,126,127,129,130,131,132,133,134,135,136,137,138,139,136,137,138,139,126,127,137,138,139,126,127,138,139,140,141,142,143,144,
145,146,147,148,149,150,151,152,151,151,152,153,152,147,151,152,153,151,152,151,152,153,154,155,156,157,158,157,158,159,157,158,157,158,159,157,158,159,157,158,159,160,161,162,163,164,165,166,167,168,
169,170,171,172,173,174,175,176,175,175,176,177,176,171,175,176,177,175,176,175,176,177,178,179,180,181,182,181,182,183,181,182,181,182,183,181,182,183,181,182,183,184,185,186,187,188,189,190,191,192,
193,194,195,196,197,198,199,200,199,199,200,201,200,195,199,200,201,199,200,199,200,201,202,203,204,205,206,205,206,207,205,206,205,206,207,205,206,207,205,206,207,208,209,210,211,212,213,214,215,216,
217,218,219,219,220,221,222,219,220,221,219,220,221,222,219,220,221,222,223,223,224,225,226,227,228,229,230,231,232,231,229,231,231,232,231,229,231,232,229,231,232,232,233,234,235,236,237,238,239,240,
241,242,243,243,244,245,246,243,244,245,243,244,245,246,243,244,245,246,247,821,821,821,821,821,822,253,242,255,256,255,253,255,255,256,255,253,255,256,253,255,256,256,257,258,259,260,261,262,263,264,
265,266,267,268,269,270,271,272,271,272,270,271,272,267,268,269,270,271,272,271,272,273,845,845,845,845,278,279,280,279,277,279,279,280,279,277,279,280,277,279,280,280,281,282,283,284,285,286,287,288,
459,460,461,462,463,464,465,466,467,468,469,470,471,472,473,474,475,476,477,478,479,459,460,461,462,463,464,465,466,467,468,469,470,471,472,581,581,458,459,460,461,462,463,464,465,466,467,468,469,470,
483,484,485,486,487,488,489,490,491,492,493,494,495,496,497,498,499,500,501,502,503,483,484,485,486,487,488,489,490,581,581,493,581,581,581,581,481,581,483,484,485,486,487,488,489,490,491,492,493,494,
507,508,509,510,511,512,513,514,515,516,517,518,519,520,521,522,523,524,525,526,527,507,508,509,510,511,512,581,581,581,581,581,581,581,581,581,581,581,1173,1174,1175,1176,511,512,513,514,515,516,517,518,
531,532,533,534,535,536,537,538,539,540,541,542,543,544,545,546,547,548,549,550,551,531,532,533,534,535,581,581,581,581,581,581,581,581,581,581,1191,1192,581,581,0,1196,468,469,470,471,472,473,474,475,
457,457,457,457,457,458,459,460,461,462,463,464,465,466,467,468,469,470,471,472,473,474,475,476,477,478,457,581,581,581,581,581,581,581,581,581,581,1212,581,581,581,581,581,468,581,470,471,472,473,474,
481,481,481,481,481,457,457,457,457,457,457,457,458,459,460,461,462,463,464,465,466,467,457,457,457,457,481,581,581,581,581,581,581,1228,1269,1270,1271,1272,1273,581,581,581,581,581,581,470,471,472,473,474,
505,505,505,505,505,481,481,481,481,481,481,457,457,457,457,457,457,457,457,457,457,457,481,481,481,481,505,505,505,581,581,581,581,1268,1289,1290,1291,1292,1293,581,581,581,581,581,581,470,471,472,473,474,
529,529,529,529,529,505,505,505,505,505,505,481,481,481,481,481,481,481,481,481,481,481,505,505,505,505,529,529,529,581,581,581,581,1288,1309,1310,1311,1312,1313,581,581,581,581,581,469,470,471,472,473,474,
553,553,553,553,553,529,327,327,327,327,328,329,897,898,899,900,901,902,902,902,902,902,902,902,898,899,900,901,902,900,901,902,902,327,327,327,327,327,328,329,897,897,897,897,897,897,897,898,899,900,
462,463,464,465,466,467,468,469,470,471,472,473,921,922,923,924,925,926,926,926,926,926,926,926,922,923,924,925,926,902,902,902,926,926,475,476,477,478,479,921,921,921,921,921,921,921,921,922,923,924,
462,463,464,465,466,467,468,469,470,471,472,473,474,475,476,477,478,479,479,479,476,477,478,921,922,923,924,925,926,926,926,926,474,475,476,477,478,479,503,479,475,476,477,478,479,475,476,477,478,479,
462,463,464,465,466,467,468,469,470,471,472,473,474,475,476,477,478,479,479,503,476,477,478,479,503,503,468,469,470,471,472,473,474,475,476,477,478,479,527,503,479,476,477,478,479,475,476,477,478,479,
462,463,464,465,466,467,468,469,470,471,472,473,474,475,476,477,478,479,479,527,477,478,479,503,527,527,473,474,475,476,477,478,479,479,477,478,479,503,551,527,503,479,476,477,478,479,477,478,479,503,
462,463,464,465,466,467,468,469,470,471,472,473,474,475,476,477,478,479,503,551,477,478,479,527,551,551,479,474,475,476,477,478,479,503,477,478,479,527,575,551,527,503,476,477,478,479,477,478,479,527,
463,464,465,466,467,468,469,470,471,472,473,474,475,476,477,478,479,503,527,575,478,479,503,551,575,575,503,474,475,476,477,478,479,527,477,478,479,551,574,575,551,527,479,477,478,479,477,478,479,551,
463,464,465,466,467,468,469,470,471,472,473,474,475,476,477,478,479,527,551,575,479,503,527,575,574,575,527,474,475,476,477,478,479,551,478,479,503,575,573,574,575,551,503,479,478,479,477,478,479,575,
463,464,465,466,467,468,469,470,471,472,473,474,475,476,477,478,479,551,575,478,479,527,551,573,574,575,551,474,475,476,477,478,479,575,478,479,527,571,572,573,574,575,527,503,479,479,477,478,479,574,
463,464,465,466,467,468,469,470,471,472,473,474,475,476,477,478,479,575,575,479,503,551,575,572,573,574,575,475,476,477,478,479,503,575,479,503,551,571,572,573,574,575,551,527,503,503,479,479,473,474,
463,464,465,466,467,468,469,470,471,472,473,474,475,476,477,478,479,575,575,503,527,575,571,572,573,574,575,475,476,477,478,479,527,575,479,527,575,570,571,572,573,574,575,551,527,527,503,503,479,479,
463,464,465,466,467,468,469,470,471,472,473,474,475,476,477,478,479,574,575,527,551,570,571,572,573,574,575,479,476,477,478,479,551,575,479,551,568,569,570,571,572,573,574,575,551,551,527,527,503,503,
463,464,465,466,467,468,469,470,471,472,473,474,475,476,477,478,479,574,575,551,575,570,571,572,573,574,575,503,477,478,479,503,575,575,503,575,567,568,569,570,571,572,573,574,575,575,551,551,527,527,
487,488,489,490,491,492,493,494,495,496,497,498,499,500,501,502,503,574,575,575,569,570,571,572,573,574,575,527,479,479,503,527,574,575,527,564,565,566,567,568,569,570,571,572,573,574,575,575,551,551,
511,512,513,514,515,516,517,518,519,520,521,522,523,524,525,526,527,566,567,568,569,570,571,572,573,574,575,551,503,479,527,551,574,575,551,562,563,564,565,566,567,568,569,570,571,572,573,574,575,575,
535,536,537,538,539,540,541,542,543,544,545,546,547,548,549,550,551,565,566,567,568,569,570,571,572,573,574,575,527,503,551,575,574,575,575,560,561,562,563,564,565,566,567,568,569,570,571,572,573,574,
559,560,561,562,563,564,565,566,567,568,569,570,571,572,573,574,575,565,566,567,568,569,570,571,572,573,574,575,551,527,575,573,574,575,557,558,559,560,561,562,563,564,565,566,567,568,569,570,571,572
</data>
 </layer>
 <layer id="5" name="floor" width="50" height="40">
  <data encoding="csv">
0,0,0,0,0,0,0,0,0,0,0,0,0,0,0,0,0,0,0,0,0,0,0,0,0,0,0,0,0,0,0,0,0,0,0,0,0,0,0,0,0,0,0,0,0,0,0,0,0,0,
0,0,0,0,0,0,0,0,0,0,0,0,0,0,0,0,0,0,0,0,0,0,0,0,0,0,0,0,0,0,0,0,0,0,0,0,0,0,0,0,0,0,0,0,0,0,0,0,0,0,
0,0,0,0,0,0,0,0,0,0,0,0,0,0,0,0,0,0,0,0,0,0,0,0,0,0,0,0,0,0,0,0,0,0,0,0,0,0,0,0,0,0,0,0,0,0,0,0,0,0,
0,0,0,0,0,0,0,0,0,0,0,0,0,0,0,0,0,0,0,0,0,0,0,0,0,0,0,0,0,0,0,0,0,0,0,0,0,0,0,0,0,0,0,0,0,0,0,0,0,0,
0,0,0,0,0,0,0,0,0,0,0,0,0,0,0,0,0,0,0,0,0,0,0,0,0,0,0,0,0,0,0,0,0,0,0,0,0,0,0,0,0,0,0,0,0,0,0,0,0,0,
0,0,0,0,0,0,0,0,0,0,0,0,0,0,0,0,0,0,0,0,0,0,0,0,0,0,0,0,0,0,0,0,0,0,0,0,0,0,0,0,0,0,0,0,0,0,0,0,0,0,
0,0,0,0,0,0,0,0,0,0,0,0,0,0,0,0,0,0,0,0,0,0,0,0,0,0,0,0,0,0,0,0,0,0,0,0,0,0,0,0,0,0,0,0,0,0,0,0,0,0,
0,0,0,0,0,0,0,0,0,0,0,0,0,0,0,0,0,0,0,0,0,0,0,0,0,0,0,0,0,0,0,0,0,0,0,0,0,0,0,0,0,0,0,0,0,0,0,0,0,0,
0,0,0,0,0,0,0,0,0,0,0,0,0,0,0,0,0,0,0,0,0,0,0,0,0,0,0,0,0,0,0,0,0,0,0,0,0,0,0,0,0,0,0,0,0,0,0,0,0,0,
0,0,0,0,0,0,0,0,0,0,0,0,0,0,0,0,0,0,0,0,0,0,0,0,0,0,0,0,0,0,0,0,0,0,0,0,0,0,0,0,0,0,0,0,0,0,0,0,0,0,
0,0,0,0,0,0,0,0,0,0,0,0,0,0,0,0,0,0,0,0,0,0,0,0,0,0,0,0,0,0,0,0,0,0,0,0,0,0,0,0,0,0,0,0,0,0,0,0,0,0,
0,0,0,0,0,0,0,0,0,0,0,0,0,0,0,0,0,0,0,0,0,0,0,0,0,0,0,0,0,0,0,0,0,0,0,0,0,0,0,0,0,0,0,0,0,0,0,0,0,0,
794,794,794,794,794,794,794,794,794,794,794,794,794,794,794,794,794,221,222,223,796,797,799,797,798,229,230,231,232,233,229,229,229,229,229,229,229,221,0,0,0,232,233,0,0,236,237,238,239,240,
243,242,245,246,247,243,244,245,246,247,243,244,245,246,247,243,244,245,246,247,243,243,243,244,245,243,242,244,245,246,247,243,243,243,243,243,243,245,0,0,0,247,257,0,0,260,243,244,245,246,
0,0,0,0,0,0,0,0,0,0,0,0,0,0,0,0,0,0,0,0,0,0,0,0,0,0,0,0,0,0,0,0,0,0,0,0,0,0,0,0,0,0,281,0,0,284,0,0,0,0,
0,0,0,0,0,0,0,0,0,0,0,0,0,0,0,0,0,0,0,0,0,0,0,0,0,0,0,0,0,0,0,0,0,0,0,0,0,0,0,0,0,0,0,0,0,0,0,0,0,0,
0,0,0,0,0,0,0,0,0,0,0,0,0,0,0,0,0,0,0,0,0,0,0,0,0,0,0,0,0,0,0,0,0,0,0,0,0,77,76,76,83,84,92,93,93,92,93,93,93,93,
0,0,0,0,0,0,0,0,0,0,0,0,0,0,0,0,0,0,0,0,0,0,0,0,0,0,0,0,0,0,0,0,0,0,0,0,97,116,99,100,107,108,116,117,117,116,117,117,117,117,
0,0,0,0,0,0,0,0,0,0,0,0,0,0,0,0,0,0,0,0,0,0,0,0,0,0,0,0,0,0,0,0,0,0,0,0,121,140,123,124,131,132,133,142,141,140,141,141,141,141,
0,0,0,0,0,0,0,0,0,0,0,0,0,0,0,0,0,0,0,0,0,0,0,0,0,0,0,0,0,0,0,0,0,0,0,0,0,0,0,0,0,0,0,0,0,0,0,0,0,0,
0,0,0,0,0,0,0,0,0,0,0,0,0,0,0,0,0,0,0,0,0,0,0,0,0,0,0,0,0,0,0,0,0,0,0,0,0,0,0,0,0,0,0,0,0,0,0,144,0,0,
0,0,0,0,0,0,0,0,0,0,0,0,0,0,0,0,0,0,0,0,0,0,0,0,0,0,0,0,0,0,0,0,0,0,0,0,0,0,0,0,0,0,0,0,0,0,0,0,0,0,
0,0,0,0,0,0,0,0,0,0,0,0,0,0,0,0,0,0,0,0,0,0,0,1157,1158,0,0,0,0,0,0,0,0,0,0,0,0,0,0,0,0,0,0,0,0,0,0,0,0,0,
0,0,0,0,0,0,0,0,0,0,0,0,0,0,0,0,0,0,0,0,0,0,0,1159,1160,0,0,0,0,0,0,0,0,0,0,0,0,0,0,0,0,0,0,0,0,0,0,0,0,0,
0,0,0,0,794,794,794,232,794,794,794,794,794,229,230,231,794,221,794,794,794,794,794,794,794,794,794,794,794,794,794,794,794,794,794,794,794,794,794,794,794,229,230,231,794,794,794,794,221,222,
0,0,0,0,247,243,244,256,246,247,243,244,245,253,254,255,244,245,246,247,243,243,243,244,245,243,243,244,245,246,247,243,243,243,243,243,243,243,244,245,246,253,254,255,246,247,243,244,245,246,
0,0,0,0,0,0,0,0,0,0,0,0,0,277,278,279,0,0,0,0,0,0,0,0,0,0,0,0,0,0,0,0,0,0,0,0,0,0,0,0,0,277,278,279,0,0,0,0,0,0,
0,0,0,0,0,0,0,0,0,0,0,0,0,0,0,0,0,0,0,0,0,0,0,0,0,0,0,0,0,0,0,0,0,0,0,0,0,0,0,0,0,0,0,0,0,0,0,0,0,0,
0,0,0,0,0,0,0,0,0,0,0,0,0,0,0,0,0,0,0,0,0,0,0,0,0,0,0,0,0,0,0,0,0,0,0,0,0,0,0,0,0,0,0,0,0,0,0,0,0,0,
0,0,73,74,75,78,0,0,0,0,0,0,0,0,0,0,0,0,0,0,0,0,0,0,0,0,0,0,0,0,0,0,0,0,0,0,0,0,0,0,0,0,0,0,0,0,0,0,0,0,
0,0,97,98,99,114,0,0,0,0,0,0,0,0,0,0,0,0,0,0,0,0,0,0,0,0,0,0,0,0,0,0,0,0,0,0,0,0,0,0,0,0,0,0,0,0,0,0,0,0,
0,0,121,122,73,74,75,79,0,0,0,92,0,0,0,0,0,0,0,0,0,0,0,0,0,0,0,0,0,0,0,0,0,0,0,0,0,0,0,0,0,0,0,0,0,0,0,0,0,0,
0,0,0,0,97,98,99,103,0,0,0,116,0,0,0,0,0,0,0,0,0,0,0,0,0,0,0,0,0,0,0,0,0,0,0,0,0,0,0,0,0,0,0,0,0,0,0,0,0,0,
0,0,0,0,121,122,123,127,0,0,0,140,0,0,0,0,0,0,0,0,0,0,0,0,0,0,0,0,0,0,0,0,0,0,0,0,0,0,0,0,0,0,0,0,0,0,0,0,0,0,
0,0,0,0,0,0,0,0,0,0,0,0,0,0,0,0,0,0,0,0,0,0,0,0,0,0,0,0,0,0,0,0,0,0,0,0,0,0,0,0,0,0,0,0,0,0,0,0,0,0,
0,0,0,0,0,0,0,0,0,0,0,0,0,0,0,0,0,0,0,0,0,0,0,0,0,0,0,0,0,0,0,0,0,0,0,0,0,0,0,0,0,0,0,0,0,0,0,0,0,0,
0,0,0,0,0,0,0,0,0,0,0,0,0,0,0,0,0,0,0,0,0,0,0,0,0,0,0,0,0,0,0,0,0,0,0,0,0,0,0,0,0,0,0,0,0,0,0,0,0,0,
0,0,0,0,0,0,0,0,0,0,0,0,0,0,0,0,0,0,0,0,0,0,0,0,0,0,0,0,0,0,0,0,0,0,0,0,0,0,0,0,0,0,0,0,0,0,0,0,0,0,
794,794,794,794,794,794,794,794,794,794,794,794,794,794,794,794,794,221,794,794,794,794,794,794,794,794,794,794,794,794,794,794,794,794,794,794,794,794,794,794,794,794,794,794,794,794,794,794,221,222,
244,245,246,247,243,244,245,246,247,243,244,245,246,247,243,244,245,243,244,245,246,247,243,244,245,246,247,243,244,245,246,247,243,244,245,246,247,243,243,243,244,245,243,243,244,245,246,247,243,243
</data>
 </layer>
 <layer id="6" name="ladder" width="50" height="40">
  <data encoding="csv">
0,0,0,0,0,0,0,0,0,0,0,0,0,0,0,0,0,0,0,0,0,0,0,0,0,0,0,0,0,0,0,0,0,0,0,0,0,0,0,0,0,0,0,0,0,0,0,0,0,0,
0,0,0,0,0,0,0,0,0,0,0,0,0,0,0,0,0,0,0,0,0,0,0,0,0,0,0,0,0,0,0,0,0,0,0,0,0,0,0,0,0,0,0,0,0,0,0,0,0,0,
0,0,0,0,0,0,0,0,0,0,0,0,0,0,0,0,0,0,0,0,0,0,0,0,0,0,0,0,0,0,0,0,0,0,0,0,0,0,0,0,0,0,0,0,0,0,0,0,0,0,
0,0,0,0,0,0,0,0,0,0,0,0,0,0,0,0,0,0,0,0,0,0,0,0,0,0,0,0,0,0,0,0,0,0,0,0,0,0,0,0,0,0,0,0,0,0,0,0,0,0,
0,0,0,0,0,0,0,0,0,0,0,0,0,0,0,0,0,0,0,0,0,0,0,0,0,0,0,0,0,0,0,0,0,0,0,0,0,0,0,0,0,0,0,0,0,0,0,0,0,0,
0,0,0,0,0,0,0,0,0,0,0,0,0,0,0,0,0,0,0,0,0,0,0,0,0,0,0,0,0,0,0,0,0,0,0,0,0,0,0,0,0,0,0,0,0,0,0,0,0,0,
0,0,0,0,0,0,0,0,0,0,0,0,0,0,0,0,0,0,0,0,0,0,0,0,0,0,0,0,0,0,0,0,0,0,0,0,0,0,0,0,0,0,0,0,0,0,0,0,0,0,
0,0,0,0,0,0,0,0,0,0,0,0,0,0,0,0,0,0,0,0,0,0,0,0,0,0,0,0,0,0,0,0,0,0,0,0,0,0,0,0,0,0,0,0,0,0,0,0,0,0,
0,0,0,0,0,0,0,0,0,0,0,0,0,0,0,0,0,0,0,0,0,0,0,0,0,0,0,0,0,0,0,0,0,0,0,0,0,0,0,0,0,0,0,0,0,0,0,0,0,0,
0,0,0,0,0,0,0,0,0,0,0,0,0,0,0,0,0,0,0,0,0,0,0,0,0,0,0,0,0,0,0,0,0,0,0,0,0,0,0,0,0,0,0,0,0,0,0,0,0,0,
0,0,0,0,0,0,0,0,0,0,0,0,0,0,0,0,0,0,0,0,0,0,0,0,0,0,0,0,0,0,0,0,0,0,0,0,0,0,0,0,0,0,0,0,0,0,0,0,0,0,
0,0,0,0,0,0,0,0,0,0,0,0,0,0,0,0,0,0,0,0,0,0,0,0,0,0,0,0,0,0,0,0,0,0,0,0,0,0,0,0,0,0,0,0,0,0,0,0,0,0,
0,0,0,0,0,0,0,0,0,0,0,0,0,0,0,0,0,0,0,0,0,0,0,0,0,0,0,0,0,0,0,0,0,0,0,0,0,0,226,227,228,0,0,0,0,0,0,0,0,0,
0,0,0,0,0,0,0,0,0,0,0,0,0,0,0,0,0,0,0,0,0,0,0,0,0,0,0,0,0,0,0,0,0,0,0,0,0,0,250,251,252,0,0,0,0,0,0,0,0,0,
0,0,0,0,0,0,0,0,0,0,0,0,0,0,0,0,0,0,0,0,0,0,0,0,0,0,0,0,0,0,0,0,0,0,0,0,0,0,250,251,252,0,0,0,0,0,0,0,0,0,
0,0,0,0,0,0,0,0,0,0,0,0,0,0,0,0,0,0,0,0,0,0,0,0,0,0,0,0,0,0,0,0,0,0,0,0,0,0,250,251,252,0,0,0,0,0,0,0,0,0,
0,0,0,0,0,0,0,0,0,0,0,0,0,0,0,0,0,0,0,0,0,0,0,0,0,0,0,0,0,0,0,0,0,0,0,0,0,0,274,275,276,0,0,0,0,0,0,0,0,0,
0,0,0,0,0,0,0,0,0,0,0,0,0,0,0,0,0,0,0,0,0,0,0,0,0,0,0,0,0,0,0,0,0,0,0,0,0,0,0,0,0,0,0,0,0,0,0,0,0,0,
0,0,0,0,0,0,0,0,0,0,0,0,0,0,0,0,0,0,0,0,0,0,0,0,0,0,0,0,0,0,0,0,0,0,0,0,0,0,0,0,0,0,0,0,0,0,0,0,0,0,
0,0,0,0,0,0,0,0,0,0,0,0,0,0,0,0,0,0,0,0,0,0,0,0,0,0,0,0,0,0,0,0,0,0,0,0,0,0,0,0,0,0,0,0,0,0,0,0,0,0,
0,0,0,0,0,0,0,0,0,0,0,0,0,0,0,0,0,0,0,0,0,0,0,0,0,0,0,0,0,0,0,0,0,0,0,0,0,0,0,0,0,0,0,0,0,0,0,0,0,0,
0,0,0,0,0,0,0,0,0,0,0,0,0,0,0,0,0,0,0,0,0,0,0,0,0,0,0,0,0,0,0,0,0,0,0,0,0,0,0,0,0,0,0,0,0,0,0,0,0,0,
0,0,0,0,0,0,0,0,0,0,0,0,0,0,0,0,0,0,0,0,0,0,0,0,0,0,0,0,0,0,0,0,0,0,0,0,0,0,0,0,0,0,0,0,0,0,0,0,0,0,
0,0,0,0,0,0,0,0,0,0,0,0,0,0,0,0,0,0,0,0,0,0,0,0,0,0,0,0,0,0,0,0,0,0,0,0,0,0,0,0,0,0,0,0,0,0,0,0,0,0,
0,0,0,0,226,227,228,0,0,0,0,0,0,0,0,0,0,0,0,0,0,0,0,0,0,0,0,0,0,0,0,0,0,0,0,0,0,0,0,0,0,0,0,0,0,0,0,0,0,0,
0,0,0,0,250,251,252,0,0,0,0,0,0,0,0,0,0,0,0,0,0,0,0,0,0,0,0,0,0,0,0,0,0,0,0,0,0,0,0,0,0,0,0,0,0,0,0,0,0,0,
0,0,0,0,250,251,252,0,0,0,0,0,0,0,0,0,0,0,0,0,0,0,0,0,0,0,0,0,0,0,0,0,0,0,0,0,0,0,0,0,0,0,0,0,0,0,0,0,0,0,
0,0,0,0,250,251,252,0,0,0,0,0,0,0,0,0,0,0,0,0,0,0,0,0,0,0,0,0,0,0,0,0,0,0,0,0,0,0,0,0,0,0,0,0,0,0,0,0,0,0,
0,0,0,0,250,251,252,0,0,0,0,0,0,0,0,0,0,0,0,0,0,0,0,0,0,0,0,0,0,0,0,0,0,0,0,0,0,0,0,0,0,0,0,0,0,0,0,0,0,0,
0,0,0,0,0,0,0,0,0,0,0,0,0,0,0,0,0,0,0,0,0,0,0,0,0,0,0,0,0,0,0,0,0,0,0,0,0,0,0,0,0,0,0,0,0,0,0,0,0,0,
0,0,0,0,0,0,0,0,0,0,0,0,0,0,0,0,0,0,0,0,0,0,0,0,0,0,0,0,0,0,0,0,0,0,0,0,0,0,0,0,0,0,0,0,0,0,0,0,0,0,
0,0,0,0,0,0,0,0,0,0,0,0,0,0,0,0,0,0,0,0,0,0,0,0,0,0,0,0,0,0,0,0,0,0,0,0,0,0,0,0,0,0,0,0,0,0,0,0,0,0,
0,0,0,0,0,0,0,0,250,251,252,0,0,0,0,0,0,0,0,0,0,0,0,0,0,0,0,0,0,0,0,0,0,0,0,0,0,0,0,0,0,0,0,0,0,0,0,0,0,0,
0,0,0,0,0,0,0,0,250,251,252,0,0,0,0,0,0,0,0,0,0,0,0,0,0,0,0,0,0,0,0,0,0,0,0,0,0,0,0,0,0,0,0,0,0,0,0,0,0,0,
0,0,0,0,0,0,0,0,250,251,252,0,0,0,0,0,0,0,0,0,0,0,0,0,0,0,0,0,0,0,0,0,0,0,0,0,0,0,0,0,0,0,0,0,0,0,0,0,0,0,
0,0,0,0,0,0,0,0,250,251,252,0,0,0,0,0,0,0,0,0,0,0,0,0,0,0,0,0,0,0,0,0,0,0,0,0,0,0,0,0,0,0,0,0,0,0,0,0,0,0,
0,0,0,0,0,0,0,0,250,251,252,0,0,0,0,0,0,0,0,0,0,0,0,0,0,0,0,0,0,0,0,0,0,0,0,0,0,0,0,0,0,0,0,0,0,0,0,0,0,0,
0,0,0,0,0,0,0,0,274,275,276,0,0,0,0,0,0,0,0,0,0,0,0,0,0,0,0,0,0,0,0,0,0,0,0,0,0,0,0,0,0,0,0,0,0,0,0,0,0,0,
0,0,0,0,0,0,0,0,0,0,0,0,0,0,0,0,0,0,0,0,0,0,0,0,0,0,0,0,0,0,0,0,0,0,0,0,0,0,0,0,0,0,0,0,0,0,0,0,0,0,
0,0,0,0,0,0,0,0,0,0,0,0,0,0,0,0,0,0,0,0,0,0,0,0,0,0,0,0,0,0,0,0,0,0,0,0,0,0,0,0,0,0,0,0,0,0,0,0,0,0
</data>
 </layer>
 <objectgroup id="2" name="Object Layer 1">
  <object id="1" name="enter_quest1" type="Bin" x="25.159" y="309.645" width="44.95" height="76.7742"/>
  <object id="6" name="enter_quest2" type="Hole" x="1375.67" y="264.334" width="68" height="121.333"/>
  <object id="8" name="enter_quest3" type="wall" x="715" y="305" width="77" height="95"/>
 </objectgroup>
</map>
