<?xml version="1.0" encoding="UTF-8"?>
<map version="1.10" tiledversion="1.11.2" orientation="orthogonal" renderorder="right-down" width="25" height="19" tilewidth="32" tileheight="32" infinite="1" nextlayerid="8" nextobjectid="39">
 <tileset firstgid="1" name="sewer" tilewidth="32" tileheight="32" tilecount="576" columns="24">
  <image source="../../../Documents/rat sewer tile set/dank sewers tile set.png" width="768" height="768"/>
 </tileset>
 <tileset firstgid="577" source="../../../Downloads/titlefont.tsx"/>
 <tileset firstgid="623" source="../../../Downloads/twt.tsx"/>
 <tileset firstgid="663" source="../../../Downloads/fann.tsx"/>
 <tileset firstgid="679" source="../../../Downloads/start.tsx"/>
 <layer id="1" name="Tile Layer 1" width="25" height="19">
  <data encoding="csv">
   <chunk x="-48" y="-48" width="16" height="16">
0,0,0,0,0,0,0,0,0,0,0,0,0,0,0,0,
0,0,0,0,0,0,0,0,0,0,0,0,0,0,0,0,
0,0,0,0,0,0,0,0,0,0,0,0,0,0,0,0,
0,0,0,0,0,0,0,0,0,0,0,0,0,0,0,0,
0,0,0,0,0,0,0,0,0,0,0,0,0,0,0,0,
0,0,0,0,0,0,0,0,0,0,0,0,0,0,0,0,
0,0,0,0,0,0,0,0,0,0,0,0,0,0,0,0,
0,0,0,0,0,0,0,0,0,0,0,0,0,0,0,0,
0,0,0,0,0,0,0,0,0,0,0,0,0,0,0,0,
0,0,0,0,0,0,0,0,0,0,0,0,0,0,0,0,
0,0,0,0,0,0,0,0,0,0,0,0,0,0,0,0,
0,0,0,0,0,0,0,0,0,0,0,0,0,0,0,0,
0,0,0,0,0,0,0,0,0,0,0,0,0,0,0,0,
0,0,0,0,0,0,0,0,0,0,0,0,0,0,0,158,
0,0,0,0,0,0,0,0,0,0,0,0,0,158,159,159,
0,0,0,0,0,0,0,0,0,16,16,158,158,159,183,255
</chunk>
   <chunk x="-32" y="-48" width="16" height="16">
0,0,0,0,0,0,0,0,0,0,0,0,0,0,0,0,
0,0,0,0,0,0,0,0,0,0,0,0,0,0,0,0,
0,0,0,0,0,0,0,0,0,0,0,0,0,0,0,0,
0,0,0,0,0,0,0,0,0,0,0,0,0,0,0,0,
0,0,0,0,0,0,0,0,0,0,0,0,0,0,0,0,
0,0,0,0,0,0,0,0,0,0,0,0,0,0,0,0,
0,0,0,0,0,0,0,0,0,0,0,0,0,0,0,0,
0,0,0,0,0,0,0,0,0,0,0,0,0,0,0,0,
0,0,0,0,0,0,0,0,0,0,0,0,0,0,0,0,
0,0,0,0,0,0,0,0,0,0,0,0,0,0,0,0,
0,0,0,0,0,0,0,0,0,0,0,0,0,0,0,0,
0,0,0,0,0,0,0,0,0,0,0,0,0,0,0,0,
0,0,0,0,0,0,0,0,0,0,0,0,0,0,0,0,
159,159,0,158,159,159,159,0,0,0,0,0,0,0,0,0,
159,183,158,159,159,183,183,159,159,159,159,18,19,0,0,0,
3221225718,3221225718,3221225718,3221225718,3221225718,3221225718,3221225718,3221225718,3221225718,3221225718,3221225717,3221225716,159,159,159,159
</chunk>
   <chunk x="-16" y="-48" width="16" height="16">
0,0,0,0,0,0,0,0,0,0,0,0,0,0,0,0,
0,0,0,0,0,0,0,0,0,0,0,0,0,0,0,0,
0,0,0,0,0,0,0,0,0,0,0,0,0,0,0,0,
0,0,0,0,0,0,0,0,0,0,0,0,0,0,0,0,
0,0,0,0,0,0,0,0,0,0,0,0,0,0,0,0,
0,0,0,0,0,0,0,0,0,0,0,0,0,0,0,0,
0,0,0,0,0,0,0,0,0,0,0,0,0,0,0,0,
0,0,0,0,0,0,0,0,0,0,0,0,0,0,0,0,
0,0,0,0,0,0,0,0,0,0,0,0,0,0,0,0,
0,0,0,0,0,0,0,0,0,0,0,0,0,0,0,0,
0,0,0,0,0,0,0,0,0,0,0,0,0,0,0,0,
0,0,0,0,0,0,0,0,0,0,0,0,0,0,0,0,
0,0,0,0,0,0,0,0,0,0,0,0,0,0,0,0,
0,0,0,0,0,0,0,0,0,0,0,0,0,0,0,0,
0,0,0,0,0,0,0,0,0,0,0,0,0,0,0,0,
159,159,0,0,0,0,0,0,0,0,0,0,0,0,0,0
</chunk>
   <chunk x="-64" y="-32" width="16" height="16">
0,0,0,0,0,0,0,0,0,0,0,0,0,0,0,0,
0,0,0,0,0,0,0,0,0,0,0,0,0,0,0,0,
0,0,0,0,0,0,0,0,0,0,0,0,0,0,0,0,
0,0,0,0,0,0,0,0,0,0,0,0,0,0,0,0,
0,0,0,0,0,0,0,0,0,0,0,0,0,0,0,232,
0,0,0,0,0,0,0,0,0,0,0,0,0,0,0,232,
0,0,0,0,0,0,0,0,0,0,0,0,0,0,0,232,
0,0,0,0,0,0,0,0,0,0,0,0,0,0,0,232,
0,0,0,0,0,0,0,0,0,0,0,0,0,0,0,232,
0,0,0,0,0,0,0,0,0,0,0,0,0,0,0,232,
0,0,0,0,0,0,0,0,0,0,0,0,0,0,0,232,
0,0,0,0,0,0,0,0,0,0,0,0,0,0,0,232,
0,0,0,0,0,0,0,0,0,0,0,0,0,0,0,232,
0,0,0,0,0,0,0,0,0,0,0,0,0,0,0,232,
0,0,0,0,0,0,0,0,0,0,0,0,0,0,0,232,
0,0,0,0,0,0,0,0,0,0,0,0,0,0,0,232
</chunk>
   <chunk x="-48" y="-32" width="16" height="16">
0,0,0,0,0,0,16,16,16,158,158,159,159,3221225718,3221225718,3221225718,
0,0,0,0,0,16,158,158,158,159,159,3221225718,3221225718,3221225718,3221225717,3221225716,
0,0,0,0,158,158,182,158,159,1610612982,3221225718,3221225718,3221225717,267,267,267,
0,0,0,0,182,182,158,159,1610612982,1610612982,1610612981,3221225718,267,291,291,291,
0,0,0,0,182,183,1610612982,1610612982,1610612981,3221225718,267,267,291,291,350,351,
0,0,158,158,182,1610612982,1610612982,1610612981,3221225718,267,291,291,291,292,293,294,
232,158,182,182,183,1610612982,1610612981,3221225718,267,291,291,292,293,294,295,295,
232,182,182,182,183,1610612982,1610612980,267,291,291,292,293,294,295,18,19,
232,182,183,182,1610612982,1610612982,159,350,351,352,353,354,295,41,42,43,
232,182,183,182,1610612982,1610612982,1610612982,64,270,270,294,68,69,69,66,67,
232,182,183,182,1610612982,1610612982,1610612982,16,294,294,19,20,21,62,62,62,
232,182,183,182,1610612982,1610612982,1610612982,15,16,17,18,19,20,21,64,65,
232,182,183,182,1610612981,1610612981,1610612982,15,16,17,18,19,20,21,67,68,
232,182,183,182,1610612980,1610612980,1610612982,15,16,17,18,19,20,21,350,351,
232,232,183,183,158,1610612981,1610612982,15,16,17,18,19,20,21,65,66,
232,232,183,159,158,1610612982,1610612982,14,15,16,17,18,19,20,21,64
</chunk>
   <chunk x="-32" y="-32" width="16" height="16">
3221225717,3221225716,255,3221225718,3221225717,3221225718,3221225717,3221225716,3221225716,3221225718,3221225717,3221225716,3221225716,2684354804,2684354804,2684354804,
3221225718,3221225717,3221225716,3221225716,3221225716,3221225716,3221225716,3221225716,3221225716,3221225716,267,268,269,270,271,2684354805,
267,268,269,270,271,267,268,269,270,271,291,292,293,294,295,271,
291,267,267,267,267,267,267,268,269,270,291,292,293,294,295,295,
352,353,354,291,291,291,291,267,267,267,268,291,291,292,293,294,
295,294,295,19,19,19,19,291,291,267,267,268,267,291,292,293,
41,42,43,43,43,43,43,43,43,291,267,267,291,267,291,292,
38,62,62,62,62,38,14,62,38,14,291,267,291,267,291,292,
62,62,63,64,65,62,38,62,62,38,62,291,350,351,352,353,
68,69,69,69,69,69,62,62,63,62,62,62,291,291,267,291,
62,62,14,14,62,63,64,62,14,62,63,64,14,291,291,291,
66,67,38,38,62,63,64,65,38,14,62,63,38,267,291,292,
69,45,62,62,62,62,63,64,62,38,62,63,62,291,350,351,
352,353,354,63,64,65,66,67,68,62,62,63,64,65,291,291,
67,68,69,69,45,45,45,45,45,45,26,2,26,27,28,291,
65,66,67,68,69,69,69,69,69,69,6,26,26,26,27,28
</chunk>
   <chunk x="-16" y="-32" width="16" height="16">
2684354804,183,159,0,0,0,0,0,0,0,0,0,0,0,0,0,
2684354805,2684354804,183,0,0,0,0,0,0,0,0,0,0,0,0,0,
271,2684354805,2684354804,2684354804,0,0,0,0,0,0,0,0,0,0,0,0,
295,271,2684354805,2684354805,159,0,0,0,0,0,0,0,0,0,0,0,
295,295,271,2684354806,183,0,0,0,0,0,0,0,0,0,0,0,
294,295,295,2684354806,183,40,40,40,40,40,40,40,40,0,0,0,
293,294,295,2684354806,45,40,40,40,40,40,40,40,40,0,0,0,
293,294,295,2684354806,69,21,40,40,40,40,40,40,40,0,0,0,
354,294,295,271,159,45,0,0,0,0,40,40,40,0,0,0,
292,293,294,295,183,69,0,0,0,0,40,40,40,0,0,0,
292,293,294,295,2684354804,159,0,0,0,0,40,40,40,0,0,0,
293,294,295,271,2684354805,183,159,0,0,0,40,40,40,0,0,0,
352,353,354,295,2684354806,183,183,0,0,0,40,40,40,0,0,0,
292,293,294,295,5,182,183,6,2684354663,2684354639,40,40,40,0,0,0,
292,293,294,295,29,182,183,30,2684354664,2684354640,40,40,40,0,0,0,
29,30,8,3,4,5,6,1610612818,2684354665,2684354641,8,8,8,8,8,0
</chunk>
   <chunk x="-64" y="-16" width="16" height="16">
0,0,0,0,0,0,0,0,0,0,0,0,0,0,0,232,
0,0,0,0,0,0,0,0,0,0,0,0,0,0,0,232,
0,0,0,0,0,0,0,0,0,0,0,0,0,0,0,232,
0,0,0,0,0,0,0,0,0,0,0,0,0,0,0,232,
0,0,0,0,0,0,0,0,0,0,0,0,0,0,0,232,
0,0,0,0,0,0,0,0,0,0,0,0,0,0,0,232,
0,0,0,0,0,0,0,0,0,0,0,0,0,0,0,218,
0,0,0,0,0,0,0,0,0,0,0,0,375,376,377,378,
0,0,0,0,0,0,0,0,0,0,0,0,399,400,401,402,
0,0,0,0,0,0,0,0,0,0,0,0,0,0,399,400,
0,0,0,0,0,0,0,0,0,0,0,0,0,0,0,0,
0,0,0,0,0,0,0,0,0,0,0,0,0,0,0,0,
0,0,0,0,0,0,0,0,0,0,0,0,0,0,0,0,
0,0,0,0,0,0,0,0,0,0,0,0,0,0,0,0,
0,0,0,0,0,0,0,0,0,0,0,0,0,0,0,0,
0,0,0,0,0,0,0,0,0,0,0,0,0,0,0,0
</chunk>
   <chunk x="-48" y="-16" width="16" height="16">
232,232,182,158,158,1610612981,1610612982,38,39,40,41,42,43,44,45,68,
232,232,182,182,158,1610612980,1610612982,1610612982,63,64,65,66,67,68,69,68,
232,232,182,182,182,158,1610612981,1610612982,64,65,66,67,68,69,21,68,
232,232,234,183,182,182,1610612980,1610612982,1610612982,65,66,67,68,69,21,21,
232,232,232,232,183,159,158,1610612982,1610612982,1610612982,1610612982,67,68,69,45,45,
232,232,232,232,183,183,182,1610612981,1610612981,1610612981,1610612982,1610612982,1610612982,69,69,69,
219,220,221,222,222,222,222,222,1610612980,1610612980,1610612981,1610612981,1610612982,18,19,20,
379,380,381,218,219,220,221,222,222,222,220,221,222,222,222,222,
403,404,405,380,381,182,284,285,286,62,182,1610612980,1610612980,66,67,68,
401,402,403,404,405,284,285,286,284,285,286,64,65,66,67,68,
325,325,325,326,327,328,329,330,331,332,333,333,333,325,326,327,
349,349,349,350,351,352,353,354,355,356,357,357,357,349,350,351,
373,373,373,374,375,376,377,378,379,380,381,381,381,373,374,375,
0,0,0,0,0,373,373,374,375,376,377,378,379,380,381,45,
0,0,0,0,0,14,15,16,17,18,19,20,21,21,21,21,
0,0,0,0,0,38,39,40,41,42,43,44,45,45,45,45
</chunk>
   <chunk x="-32" y="-16" width="16" height="16">
69,21,2,26,27,28,29,30,30,30,30,30,30,3,3,3,
69,45,26,26,27,28,29,30,27,27,3,4,354,355,27,27,
69,69,27,28,29,30,51,51,51,51,27,3,4,51,51,51,
21,245,245,51,51,51,51,52,53,54,51,27,28,29,30,31,
45,245,246,247,247,27,28,29,30,31,32,51,52,53,54,55,
69,245,246,247,247,51,52,53,54,55,56,246,247,51,52,53,
21,194,195,196,197,247,247,247,247,247,176,177,246,247,27,28,
222,222,219,220,220,221,222,223,223,223,223,237,176,177,51,52,
69,375,376,377,378,379,380,381,246,247,220,221,237,176,177,148,
69,399,400,401,402,403,404,405,245,246,247,220,221,221,176,148,
328,329,330,331,332,333,61,62,63,244,245,246,247,237,176,177,
352,353,354,355,356,357,61,62,63,64,279,279,256,237,237,237,
376,377,378,379,380,381,20,16,17,18,19,279,279,237,237,237,
38,39,40,16,17,18,19,16,16,17,18,19,64,279,279,279,
62,63,64,40,41,42,16,40,40,41,42,43,151,152,153,153,
45,45,45,45,45,39,40,41,42,43,183,174,175,176,177,177
</chunk>
   <chunk x="-16" y="-16" width="16" height="16">
3,3,3,27,28,29,30,1610612817,2684354666,2684354642,32,32,32,32,32,3,
27,27,27,51,52,53,54,73,74,75,56,56,56,56,56,27,
51,51,51,51,51,27,27,97,98,3221225572,3221225571,3221225575,3221225574,3221225573,3221225574,3221225575,
32,7,8,3,3,51,51,51,51,3221225554,3221225553,3221225551,3221225550,3221225549,55,3221225551,
56,350,351,352,353,354,29,30,31,32,51,52,53,54,55,56,
54,55,56,51,51,52,53,54,55,56,53,54,55,56,247,247,
3,4,5,6,7,8,51,51,52,53,54,3,4,5,6,150,
27,28,29,30,31,32,54,54,54,54,54,5,6,29,30,150,
51,52,53,54,55,354,355,4,5,6,7,8,30,53,54,150,
149,150,51,52,53,54,27,28,29,30,31,32,54,245,176,177,
177,244,176,177,246,176,51,52,53,54,55,56,245,176,177,219,
236,236,236,236,236,236,176,177,246,247,244,245,176,177,217,217,
236,236,236,236,236,236,236,236,226,227,228,236,217,217,217,218,
279,279,279,279,279,279,279,257,250,251,252,260,132,133,134,135,
153,153,153,153,153,153,153,257,250,251,252,260,158,159,160,161,
177,177,177,177,177,177,177,281,274,251,252,284,182,183,184,185
</chunk>
   <chunk x="0" y="-16" width="16" height="16">
3,3,3,3,3,3,3,4,5,2684354681,2684354657,2684354633,0,0,0,0,
27,27,3221225595,3221225594,2,3,4,5,6,2684354682,2684354658,2684354634,102,103,102,103,
3221225574,3221225573,3221225571,3221225570,26,27,28,29,30,1610612816,1610612840,1610612864,7,8,0,0,
3221225550,3221225549,3221225547,3221225546,3221225545,56,1610612809,1610612833,1610612791,53,1610612839,1610612863,31,32,0,0,
51,121,1610612815,1610612839,55,56,56,56,1610612790,53,74,75,3221225594,3221225593,0,0,
219,151,3221225591,114,52,53,54,55,1610612789,53,98,99,3221225570,3221225569,62,63,
217,153,74,75,76,77,78,79,1610612788,53,53,1610612860,3221225546,3221225545,86,87,
217,177,98,99,100,101,102,103,104,105,106,107,108,109,110,111,
217,177,293,294,295,296,296,296,272,52,52,53,54,55,56,52,
217,218,173,292,293,294,295,296,296,272,272,28,4,5,6,7,
217,217,173,174,175,292,293,294,295,296,296,52,28,29,30,31,
217,217,217,173,174,292,292,293,294,244,244,244,52,53,54,55,
219,220,217,217,219,219,219,219,219,219,219,219,219,219,219,219,
136,136,136,136,136,136,136,136,136,136,129,129,129,129,130,279,
162,163,164,165,166,167,168,158,159,151,151,151,151,151,149,149,
186,187,188,189,190,191,192,182,183,175,175,176,175,175,175,175
</chunk>
   <chunk x="16" y="-16" width="16" height="16">
0,0,0,0,0,0,0,0,0,0,0,0,0,0,0,0,
0,0,0,0,0,0,0,0,0,0,0,0,0,0,0,0,
0,0,0,0,0,0,0,0,0,0,0,0,0,0,0,0,
0,0,0,0,0,0,0,0,0,0,0,0,0,0,0,0,
0,2684354681,2684354657,2684354633,6,7,8,9,10,0,0,0,0,0,0,0,
64,2684354682,2684354658,2684354634,68,69,70,71,72,10,0,0,0,0,0,0,
88,2684354683,2684354659,2684354635,92,93,94,95,96,10,0,0,0,0,0,0,
112,113,114,115,116,117,118,119,120,10,0,0,0,0,0,0,
53,54,305,28,4,5,6,7,8,9,10,0,0,0,0,0,
8,9,305,52,4,5,6,7,8,9,10,0,0,0,0,0,
32,33,305,52,4,5,6,7,8,9,10,0,0,0,0,0,
56,57,305,52,4,5,6,7,8,9,10,0,0,0,0,0,
220,221,222,52,4,4,5,6,7,8,9,10,0,0,0,0,
279,151,151,52,28,4,5,6,7,8,9,10,0,0,0,0,
150,151,257,52,52,4,5,6,7,8,9,10,0,0,0,0,
175,175,281,52,53,4,5,6,7,8,9,10,0,0,0,0
</chunk>
   <chunk x="-48" y="0" width="16" height="16">
0,0,0,0,0,62,63,64,65,66,67,68,69,69,69,69,
0,0,0,0,0,0,0,0,0,0,0,0,0,0,0,0,
0,0,0,0,0,0,0,0,0,0,0,0,0,0,0,0,
0,0,0,0,0,0,0,0,0,0,0,0,0,0,0,0,
0,0,0,0,0,0,0,0,0,0,0,0,0,0,0,0,
0,0,0,0,0,0,0,0,0,0,0,0,0,0,0,0,
0,0,0,0,0,0,0,0,0,0,0,0,0,0,0,0,
0,0,0,0,0,0,0,0,0,0,0,0,0,0,0,0,
0,0,0,0,0,0,0,0,0,0,0,0,0,0,0,0,
0,0,0,0,0,0,0,0,0,0,0,0,0,0,0,0,
0,0,0,0,0,0,0,0,0,0,0,0,0,0,0,0,
0,0,0,0,0,0,0,0,0,0,0,0,0,0,0,0,
0,0,0,0,0,0,0,0,0,0,0,0,0,0,0,0,
0,0,0,0,0,0,0,0,0,0,0,0,0,0,0,0,
0,0,0,0,0,0,0,0,0,0,0,0,0,0,0,0,
0,0,0,0,0,0,0,0,0,0,0,0,0,0,0,0
</chunk>
   <chunk x="-32" y="0" width="16" height="16">
69,69,69,69,69,39,40,243,244,245,246,247,244,243,244,245,
0,0,0,0,0,15,228,229,230,231,232,219,220,221,222,237,
0,0,0,0,0,15,241,242,243,244,245,246,247,248,249,246,
0,0,0,0,0,15,265,266,267,268,269,270,271,272,273,270,
0,0,0,0,0,15,289,290,291,292,293,294,295,296,297,294,
0,0,0,0,0,15,326,327,328,328,329,330,331,332,333,334,
0,0,0,0,0,15,350,351,352,352,353,354,355,356,357,358,
0,0,0,0,0,15,398,399,400,401,402,403,404,405,406,407,
0,0,0,0,0,15,422,423,424,425,426,427,428,429,430,431,
0,0,0,0,0,15,446,447,448,449,450,451,452,453,454,455,
0,0,0,0,0,39,470,471,472,473,474,475,476,477,478,479,
0,0,0,0,0,63,470,471,472,473,474,475,476,477,478,479,
0,0,0,0,0,0,0,0,0,0,0,0,0,0,0,0,
0,0,0,0,0,0,0,0,0,0,0,0,0,0,0,0,
0,0,0,0,0,0,0,0,0,0,0,0,0,0,0,0,
0,0,0,0,0,0,0,0,0,0,0,0,0,0,0,0
</chunk>
   <chunk x="-16" y="0" width="16" height="16">
246,247,243,244,245,246,247,281,274,275,276,284,245,246,208,209,
237,237,237,237,237,237,237,237,237,237,237,237,237,237,237,218,
247,248,249,249,249,249,249,249,249,249,249,249,249,245,245,245,
271,272,273,273,273,273,273,273,273,273,273,273,273,269,269,269,
295,296,297,297,297,297,297,297,297,297,297,297,297,293,293,293,
335,336,334,335,336,335,336,333,334,335,336,327,328,329,330,331,
359,360,358,359,360,359,360,357,358,359,360,351,352,353,354,355,
408,384,382,383,384,383,384,381,382,383,384,375,376,377,378,379,
432,408,400,401,402,403,404,405,406,407,408,399,400,401,402,403,
456,432,424,425,426,427,428,429,430,431,432,423,424,425,426,427,
480,456,448,449,450,451,452,453,454,455,456,447,448,449,450,451,
480,480,472,473,474,475,476,477,478,479,480,471,472,473,474,475,
0,0,0,0,0,0,0,0,0,0,0,0,0,0,0,0,
0,0,0,0,0,0,0,0,0,0,0,0,0,0,0,0,
0,0,0,0,0,0,0,0,0,0,0,0,0,0,0,0,
0,0,0,0,0,0,0,0,0,0,0,0,0,0,0,0
</chunk>
   <chunk x="0" y="0" width="16" height="16">
210,211,212,213,214,215,216,206,245,246,246,247,248,249,282,282,
218,218,221,222,221,222,223,221,222,223,221,221,221,221,229,230,
245,245,245,245,245,246,247,248,249,4,5,6,7,8,9,10,
269,269,269,269,269,270,271,272,273,28,29,30,31,32,33,34,
293,293,293,293,293,294,295,296,297,52,53,54,55,56,57,58,
332,333,326,327,328,326,327,328,329,330,331,332,333,334,335,336,
356,357,350,351,352,350,351,352,353,354,355,356,357,358,359,360,
380,381,374,375,376,374,375,376,377,378,379,380,381,382,383,384,
404,405,406,407,408,408,408,408,408,408,408,408,405,406,407,408,
428,429,430,431,432,432,432,432,432,432,432,432,429,430,431,432,
452,453,454,455,456,456,456,456,456,456,456,456,453,454,455,456,
476,477,478,479,480,480,480,480,480,480,480,480,477,478,479,480,
0,0,0,0,0,0,0,0,0,0,0,0,0,0,0,0,
0,0,0,0,0,0,0,0,0,0,0,0,0,0,0,0,
0,0,0,0,0,0,0,0,0,0,0,0,0,0,0,0,
0,0,0,0,0,0,0,0,0,0,0,0,0,0,0,0
</chunk>
   <chunk x="16" y="0" width="16" height="16">
270,271,305,52,53,4,5,6,7,8,9,10,0,0,0,0,
231,232,233,52,53,4,5,6,7,8,9,10,0,0,0,0,
7,8,9,52,53,4,5,6,7,8,9,10,0,0,0,0,
10,10,10,4,4,5,6,7,8,9,10,10,0,0,0,0,
34,34,34,28,4,5,6,7,8,9,10,34,0,0,0,0,
326,327,328,329,330,331,332,333,334,335,336,336,0,0,0,0,
350,351,352,353,354,355,356,357,358,359,360,360,0,0,0,0,
374,375,376,377,378,379,380,381,382,383,384,384,0,0,0,0,
408,408,408,408,408,408,408,408,408,408,408,408,0,0,0,0,
432,432,432,432,432,432,432,432,432,432,432,432,0,0,0,0,
456,456,456,456,456,456,456,456,456,456,456,456,0,0,0,0,
480,480,480,480,480,480,480,480,480,480,480,480,0,0,0,0,
0,0,0,0,0,0,0,0,0,0,0,0,0,0,0,0,
0,0,0,0,0,0,0,0,0,0,0,0,0,0,0,0,
0,0,0,0,0,0,0,0,0,0,0,0,0,0,0,0,
0,0,0,0,0,0,0,0,0,0,0,0,0,0,0,0
</chunk>
  </data>
 </layer>
 <layer id="4" name="Tile Layer 2" width="25" height="19" offsetx="9.33333" offsety="34.6667">
  <data encoding="csv">
   <chunk x="-48" y="-32" width="16" height="16">
0,0,0,0,0,0,0,0,0,0,0,0,0,0,0,0,
0,0,0,0,0,0,0,0,0,0,0,0,0,0,0,0,
0,0,0,0,0,0,0,0,0,0,0,0,0,0,0,0,
0,0,0,0,0,0,0,0,0,0,0,0,0,0,0,0,
0,0,0,0,663,664,0,0,0,0,0,0,0,0,0,0,
0,0,0,0,671,672,0,0,0,0,0,0,0,0,0,0,
0,0,0,0,0,0,0,0,0,0,0,0,0,0,0,0,
0,0,0,0,0,0,0,0,0,0,0,0,0,0,0,0,
0,0,0,0,0,0,0,0,0,0,0,0,0,0,0,0,
0,0,0,0,0,0,0,0,0,0,0,0,0,0,623,624,
0,0,0,0,0,0,0,0,0,0,0,0,0,0,598,599,
0,0,0,0,0,0,0,0,0,0,0,0,0,0,0,0,
0,0,0,0,0,0,0,0,0,0,0,0,0,0,0,0,
0,0,0,0,0,0,0,0,0,0,0,0,0,0,0,0,
0,0,0,0,0,0,0,0,0,0,0,0,0,0,0,0,
0,0,0,0,0,0,0,0,0,0,0,0,0,0,0,0
</chunk>
   <chunk x="-32" y="-32" width="16" height="16">
0,0,0,0,0,0,0,0,0,0,0,0,0,0,0,0,
0,0,0,0,0,0,0,0,0,0,0,0,0,0,0,0,
0,0,0,0,0,0,0,0,0,0,0,0,0,0,0,0,
0,0,0,0,0,0,0,0,0,0,0,0,0,0,0,0,
0,0,0,0,0,0,0,0,0,0,0,0,0,0,0,0,
0,0,0,0,114,0,0,0,0,0,0,0,0,0,0,0,
0,0,0,0,0,0,0,0,0,0,0,0,0,0,0,0,
0,0,0,0,0,0,0,0,0,0,0,0,0,0,0,0,
0,0,0,0,0,0,0,0,0,0,0,0,0,0,0,0,
0,580,581,582,583,584,585,586,587,588,589,0,0,0,0,0,
0,601,602,603,604,605,606,607,608,609,610,0,0,0,0,0,
0,0,0,0,0,0,0,0,0,0,0,0,0,0,0,0,
0,590,591,592,593,594,595,596,597,0,0,0,0,0,0,0,
0,611,612,613,614,615,616,617,618,0,0,0,0,0,0,0,
0,0,0,0,0,0,0,0,0,0,0,0,0,0,0,0,
0,695,696,697,698,699,700,701,702,0,0,0,0,0,0,0
</chunk>
   <chunk x="-16" y="-32" width="16" height="16">
0,0,0,0,0,0,0,0,0,0,0,0,0,0,0,0,
0,0,0,0,0,0,0,0,0,0,0,0,0,0,0,0,
0,0,0,0,0,0,0,0,0,0,0,0,0,0,0,0,
0,0,0,0,0,0,0,0,0,0,0,0,0,0,0,0,
0,0,0,0,0,0,0,0,0,0,0,0,0,0,0,0,
0,0,0,0,0,0,0,0,0,0,0,0,0,0,0,0,
0,0,0,0,0,40,40,40,40,40,0,0,0,0,0,0,
0,0,0,0,0,40,663,664,40,40,0,0,0,0,0,0,
0,0,0,0,0,40,671,672,40,40,0,0,0,0,0,0,
0,0,0,0,0,40,40,40,40,40,0,0,0,0,0,0,
0,0,0,0,0,0,40,40,40,40,0,0,0,0,0,0,
0,0,0,0,0,0,40,40,40,40,0,0,0,0,0,0,
0,0,0,0,0,0,0,0,0,40,40,0,0,0,0,0,
0,0,0,0,0,0,0,0,0,0,40,0,0,0,0,0,
0,0,0,0,0,0,0,0,0,0,0,0,0,0,0,0,
0,0,0,0,0,0,0,0,0,0,0,0,0,0,0,0
</chunk>
   <chunk x="-32" y="-16" width="16" height="16">
0,711,712,713,714,715,716,717,718,0,0,0,0,0,0,0,
0,0,0,0,0,0,0,0,0,0,0,0,0,0,0,0,
0,0,0,0,0,0,0,0,0,0,0,0,0,0,0,0,
0,0,0,0,0,0,0,0,0,0,0,0,0,0,0,0,
0,0,0,0,0,0,0,0,0,0,0,0,0,0,0,0,
0,0,0,0,0,0,0,0,0,0,0,0,0,0,0,0,
0,0,0,0,0,0,0,0,0,0,0,0,0,0,0,0,
0,0,0,0,0,0,0,0,0,0,0,0,0,0,0,0,
0,0,0,0,0,0,0,0,0,0,0,0,0,0,0,0,
0,0,0,0,0,0,0,0,0,0,0,0,0,0,0,0,
0,0,0,0,0,0,0,0,0,0,0,0,0,0,0,0,
0,0,0,0,0,0,0,0,0,0,0,0,0,0,0,0,
0,0,0,0,0,0,0,0,0,0,0,0,0,0,0,0,
0,0,0,0,0,0,0,0,0,0,0,0,0,0,0,0,
0,0,0,0,0,0,0,0,0,0,0,0,0,0,0,0,
0,0,0,0,0,0,0,0,0,0,0,0,0,0,0,0
</chunk>
  </data>
 </layer>
 <objectgroup id="2" name="floor">
  <object id="7" x="-608" y="-160" width="288" height="64"/>
  <object id="8" x="-320" y="-128" width="64" height="32"/>
  <object id="9" x="-160" y="-128" width="224" height="32"/>
  <object id="10" x="-64" y="-160" width="32" height="32"/>
  <object id="11" x="-32" y="-192" width="32" height="64"/>
  <object id="12" x="0" y="-256" width="64" height="128"/>
  <object id="13" x="0" y="-352" width="64" height="96"/>
  <object id="14" x="-608" y="-224" width="32" height="64"/>
  <object id="15" x="-640" y="-256" width="32" height="32"/>
  <object id="16" x="-704" y="-288" width="64" height="32"/>
  <object id="18" x="-736" y="32" width="1051" height="32"/>
  <object id="19" x="-1408" y="-288" width="704" height="32"/>
  <object id="20" x="-928" y="-256" width="192" height="320"/>
  <object id="21" x="-736" y="-256" width="128" height="160"/>
  <object id="22" x="-1472" y="-320" width="192" height="32"/>
  <object id="23" x="-1472" y="-384" width="64" height="64"/>
  <object id="24" x="-1504" y="-576" width="32" height="192"/>
  <object id="25" x="-1536" y="-832" width="32" height="256"/>
  <object id="26" x="320" y="32" width="288" height="32"/>
 </objectgroup>
 <objectgroup id="6" name="interactables (start)">
  <object id="36" x="-968" y="-507" width="227" height="51"/>
 </objectgroup>
 <objectgroup id="7" name="LIGHT">
  <object id="37" x="-889" y="-836" width="61" height="52">
   <properties>
    <property name="light_colour" value="yellow"/>
    <property name="light_intensity" value="0.75"/>
    <property name="light_radius" value="5"/>
   </properties>
   <ellipse/>
  </object>
 </objectgroup>
 <imagelayer id="3" name="title"/>
</map>
